; generated by PrusaSlicer 2.9.0 on 2025-02-05 at 14:19:16 UTC


;
;

;
;

;
;

;
;
; 

; external perimeters extrusion width = 0.45mm
; perimeters extrusion width = 0.45mm
; infill extrusion width = 0.45mm
; solid infill extrusion width = 0.45mm
; top infill extrusion width = 0.40mm
; support material extrusion width = 0.40mm
; first layer extrusion width = 0.70mm

M73 P0 R168
M73 Q0 S168
M201 X2500 Y2500 Z400 E5000 ; sets maximum accelerations, mm/sec^2
M203 X180 Y180 Z12 E80 ; sets maximum feedrates, mm / sec
M204 P2000 R1250 T2500 ; sets acceleration (P, T) and retract acceleration (R), mm/sec^2
M205 X8.00 Y8.00 Z2.00 E10.00 ; sets the jerk limits, mm/sec
M205 S0 T0 ; sets the minimum extruding and travel feed rate, mm/sec
;TYPE:Custom
M862.3 P "MINI" ; printer model check
G90 ; use absolute coordinates
M83 ; extruder relative mode
M104 S170 ; set extruder temp for bed leveling
M140 S60 ; set bed temp
M109 R170 ; wait for bed leveling temp
M190 S60 ; wait for bed temp
M204 T1250 ; set travel acceleration
G28 ; home all without mesh bed level
G29 ; mesh bed leveling 
M204 T2500 ; restore travel acceleration
M104 S215 ; set extruder temp
G92 E0
G1 Y-2 X179 F2400
G1 Z3 F720
M73 P0 R167
M73 Q0 S167
M109 S215 ; wait for extruder temp

; intro line
G1 X170 F1000
G1 Z0.2 F720
G1 X110 E8 F900
G1 X40 E10 F700
G92 E0

M221 S95 ; set flow
G21 ; set units to millimeters
G90 ; use absolute coordinates
M83 ; use relative distances for extrusion

M900 K0.2 ; Filament gcode LA 1.5
; ; Filament gcode LA 1.0




M107
;LAYER_CHANGE
;Z:0.35
;HEIGHT:0.35
G1 E-3.2 F4200
G1 Z.55 F7800
G1 X40.658 Y30.386
G1 Z.35
G1 E3.2 F2400
;TYPE:Skirt/Brim
;WIDTH:0.7
G1 F1800
G1 X42.399 Y28.98 E.20349
G1 X44.522 Y28.269 E.20358
G1 X45.759 Y28.212 E.1126
G1 X63.586 Y29.134 E1.62317
G1 X65.664 Y29.457 E.19122
G1 X90.675 Y37.568 E2.39084
G1 X92.163 Y38.276 E.14984
G1 X114.227 Y52.585 E2.39124
G1 X115.481 Y53.655 E.14989
G1 X133.087 Y73.187 E2.39107
G1 X134.021 Y74.544 E.14979
G1 X145.97 Y97.966 E2.39089
G1 X146.521 Y99.518 E.14975
G1 X152.004 Y125.237 E2.39117
G1 X152.134 Y126.879 E.14977
G1 X151.712 Y135.043 E.74334
G1 X151.202 Y137.222 E.20349
G1 X149.963 Y139.086 E.20352
G1 X148.152 Y140.401 E.20351
G1 X145.409 Y141.029 E.25587
G1 X49.383 Y141.047 E8.7316
G1 X47.18 Y140.651 E.20353
G1 X44.975 Y139.255 E.2373
G1 X41.015 Y135.394 E.50291
G1 X39.715 Y133.572 E.20352
G1 X39.109 Y130.874 E.25144
G1 X39.12 Y34.515 E8.76188
G1 X39.517 Y32.312 E.20354
G1 X40.628 Y30.438 E.1981
G1 E-2.24 F4200
;WIPE_START
G1 F6240
G1 X40.658 Y30.386 E-.03839
G1 X41.78 Y29.48 E-.92161
;WIPE_END
G1 Z.55 F7800
G1 X95.626 Y133.126
G1 Z.35
G1 E3.2 F2400
;TYPE:Perimeter
;WIDTH:0.7
G1 F1800
G1 X50.703 Y133.135 E4.08483
G1 X50.343 Y132.261 E.08595
G1 X50.139 Y131.907 E.03715
G1 X49.495 Y131.067 E.09625
G1 X49.205 Y130.777 E.03729
G1 X48.369 Y130.137 E.09574
G1 X48.018 Y129.934 E.03687
G1 X47.022 Y129.524 E.09794
G1 X47.032 Y36.2 E8.48591
G1 X63.424 Y37.049 E1.49251
G1 X88.034 Y45.029 E2.35248
G1 X109.745 Y59.109 E2.35297
G1 X127.069 Y78.328 E2.35276
G1 X138.827 Y101.374 E2.35254
G1 X144.222 Y126.681 E2.35286
G1 X144.181 Y127.465 E.07139
G1 X143.889 Y133.117 E.51462
G1 X95.686 Y133.126 E4.38308
G1 X95.686 Y133.126 F7800
G1 X95.626 Y133.751
G1 F1800
G1 X50.236 Y133.76 E4.12729
G1 X50.167 Y133.473 E.02684
G1 X49.765 Y132.5 E.09573
G1 X49.643 Y132.287 E.02232
G1 X48.999 Y131.447 E.09625
G1 X48.825 Y131.273 E.02238
G1 X47.989 Y130.633 E.09574
G1 X47.778 Y130.511 E.02216
G1 X46.805 Y130.108 E.09576
G1 X46.397 Y130.021 E.03793
G1 X46.408 Y35.542 E8.59093
G1 X63.538 Y36.429 E1.55971
G1 X88.305 Y44.46 E2.36749
G1 X110.154 Y58.629 E2.36791
G1 X127.588 Y77.971 E2.36776
G1 X139.421 Y101.163 E2.36747
G1 X144.85 Y126.631 E2.36782
G1 X144.805 Y127.497 E.07885
G1 X144.482 Y133.742 E.56861
G1 X95.686 Y133.751 E4.437
G1 X95.686 Y133.751 F7800
G1 X95.626 Y134.376
;TYPE:External perimeter
G1 F1800
G1 X49.688 Y134.385 E4.17712
G1 X49.589 Y133.711 E.06194
G1 X49.188 Y132.738 E.09569
G1 X48.445 Y131.769 E.11103
G1 X47.539 Y131.089 E.103
G1 X46.566 Y130.685 E.0958
G1 X45.772 Y130.568 E.07298
G1 X45.783 Y34.884 E8.7005
G1 X63.653 Y35.809 E1.62709
G1 X88.576 Y43.891 E2.38241
G1 X110.563 Y58.15 E2.38289
G1 X128.107 Y77.613 E2.38263
G1 X140.015 Y100.953 E2.38255
G1 X145.478 Y126.581 E2.3827
G1 X145.429 Y127.529 E.08632
G1 X145.075 Y134.367 E.62261
G1 X95.686 Y134.376 E4.49092
G1 E-2.24 F4200
M73 P0 R166
M73 Q0 S166
;WIPE_START
G1 F6240
G1 X95.626 Y134.376 E-.03837
G1 X94.185 Y134.376 E-.92163
;WIPE_END
G1 Z.55 F7800
G1 X121.339 Y72.252
G1 Z.35
G1 E3.2 F2400
;TYPE:Solid infill
;WIDTH:0.700443
G1 F1800
G1 X106.928 Y57.841 E1.85448
G1 X104.413 Y56.209 E.27281
G1 X125.583 Y77.379 E2.72426
G1 X126.679 Y78.596 E.14903
G1 X127.475 Y80.156 E.15936
G1 X101.897 Y54.578 E3.2915
G1 X99.381 Y52.946 E.27289
G1 X128.397 Y81.962 E3.73392
G1 X129.318 Y83.767 E.18439
G1 X96.865 Y51.315 E4.17615
G1 X94.349 Y49.683 E.27289
G1 X130.239 Y85.573 E4.6185
G1 X131.16 Y87.378 E.18439
G1 X91.833 Y48.051 E5.06079
G1 X89.317 Y46.42 E.27284
G1 X132.081 Y89.184 E5.50308
G1 X133.002 Y90.989 E.18439
G1 X87.295 Y45.282 E5.8818
G1 X85.987 Y44.858 E.12512
G1 X133.923 Y92.795 E6.16871
G1 X134.845 Y94.6 E.18443
G1 X84.678 Y44.434 E6.45567
G1 X83.369 Y44.009 E.12523
G1 X135.766 Y96.406 E6.7427
G1 X136.687 Y98.211 E.18439
G1 X82.06 Y43.585 E7.02961
G1 X80.752 Y43.16 E.12515
G1 X137.608 Y100.017 E7.31657
G1 X138.381 Y101.532 E.15476
G1 X138.42 Y101.713 E.01685
G1 X79.443 Y42.736 E7.58945
G1 X78.134 Y42.312 E.1252
G1 X138.659 Y102.837 E7.78866
G1 X138.899 Y103.961 E.10458
G1 X76.825 Y41.887 E7.98799
G1 X75.516 Y41.463 E.1252
M73 P1 R166
M73 Q1 S166
G1 X139.138 Y105.085 E8.18719
G1 X139.378 Y106.209 E.10458
G1 X74.208 Y41.038 E8.38646
G1 X72.899 Y40.614 E.1252
G1 X139.618 Y107.333 E8.58573
G1 X139.857 Y108.457 E.10456
G1 X71.59 Y40.189 E8.785
G1 X70.281 Y39.765 E.1252
G1 X140.097 Y109.581 E8.98427
G1 X140.337 Y110.705 E.10458
G1 X68.973 Y39.341 E9.18347
G1 X67.664 Y38.916 E.12523
G1 X140.576 Y111.829 E9.38274
G1 X140.816 Y112.953 E.10458
M73 P1 R165
M73 Q1 S165
G1 X66.355 Y38.492 E9.58201
G1 X65.046 Y38.067 E.12523
G1 X141.055 Y114.076 E9.78121
G1 X141.295 Y115.2 E.10458
G1 X63.737 Y37.643 E9.98048
G1 X63.338 Y37.513 E.03819
G1 X62.69 Y37.48 E.05904
G1 X141.535 Y116.324 E10.1461
G1 X141.774 Y117.448 E.10456
G1 X61.757 Y37.432 E10.29692
G1 X60.825 Y37.383 E.08492
G1 X142.014 Y118.572 E10.4478
G1 X142.254 Y119.696 E.10458
G1 X59.892 Y37.335 E10.59868
G1 X58.96 Y37.287 E.08492
G1 X142.493 Y120.82 E10.74944
G1 X142.733 Y121.944 E.10458
G1 X58.027 Y37.239 E10.90032
G1 X57.094 Y37.19 E.08501
G1 X142.972 Y123.068 E11.0512
G1 X143.212 Y124.192 E.10458
G1 X56.162 Y37.142 E11.20202
G1 X55.229 Y37.094 E.08501
G1 X143.452 Y125.316 E11.35291
G1 X143.691 Y126.44 E.10456
G1 X54.297 Y37.046 E11.50366
G1 X53.364 Y36.997 E.08501
G1 X143.718 Y127.351 E11.6272
G1 X143.674 Y128.192 E.07663
G1 X52.431 Y36.949 E11.7416
G1 X51.499 Y36.901 E.08492
M73 P1 R164
M73 Q1 S164
G1 X143.631 Y129.033 E11.856
G1 X143.587 Y129.874 E.07663
G1 X50.566 Y36.853 E11.9704
G1 X49.634 Y36.804 E.08492
G1 X143.544 Y130.714 E12.0848
G1 X143.5 Y131.555 E.07663
G1 X48.701 Y36.756 E12.1992
G1 X47.768 Y36.708 E.08501
M73 P2 R164
M73 Q2 S164
G1 X143.457 Y132.396 E12.31367
G1 X143.444 Y132.648 E.02296
G1 X142.825 Y132.649 E.05633
G1 X47.501 Y37.325 E12.26676
G1 X47.501 Y38.209 E.08044
G1 X141.941 Y132.649 E12.153
G1 X141.056 Y132.649 E.08053
G1 X47.501 Y39.093 E12.03918
G1 X47.501 Y39.977 E.08044
G1 X140.172 Y132.649 E11.92543
G1 X139.288 Y132.649 E.08044
G1 X47.5 Y40.862 E11.81167
G1 X47.5 Y41.746 E.08044
G1 X138.404 Y132.649 E11.69791
G1 X137.52 Y132.65 E.08044
G1 X47.5 Y42.63 E11.58422
G1 X47.5 Y43.514 E.08044
G1 X136.635 Y132.65 E11.4704
G1 X135.751 Y132.65 E.08044
G1 X47.5 Y44.399 E11.35657
G1 X47.5 Y45.283 E.08044
M73 P2 R163
M73 Q2 S163
G1 X134.867 Y132.65 E11.24282
G1 X133.983 Y132.65 E.08044
G1 X47.5 Y46.167 E11.12906
G1 X47.5 Y47.051 E.08044
G1 X133.099 Y132.65 E11.0153
G1 X132.215 Y132.651 E.08044
G1 X47.5 Y47.936 E10.90154
G1 X47.5 Y48.82 E.08044
G1 X131.33 Y132.651 E10.78772
G1 X130.446 Y132.651 E.08044
G1 X47.499 Y49.704 E10.67403
G1 X47.499 Y50.588 E.08044
G1 X129.562 Y132.651 E10.56027
G1 X128.678 Y132.651 E.08044
G1 X47.499 Y51.473 E10.44645
G1 X47.499 Y52.357 E.08044
G1 X127.794 Y132.651 E10.33269
G1 X126.909 Y132.652 E.08053
G1 X47.499 Y53.241 E10.21893
G1 X47.499 Y54.125 E.08044
G1 X126.025 Y132.652 E10.10518
G1 X125.141 Y132.652 E.08044
G1 X47.499 Y55.01 E9.99136
G1 X47.499 Y55.894 E.08044
G1 X124.257 Y132.652 E9.8776
G1 X123.373 Y132.652 E.08044
G1 X47.499 Y56.778 E9.76384
G1 X47.499 Y57.662 E.08044
G1 X122.489 Y132.652 E9.65008
G1 X121.604 Y132.653 E.08053
M73 P3 R163
M73 Q3 S163
G1 X47.498 Y58.547 E9.53633
G1 X47.498 Y59.431 E.08044
M73 P3 R162
M73 Q3 S162
G1 X120.72 Y132.653 E9.42257
G1 X119.836 Y132.653 E.08044
G1 X47.498 Y60.315 E9.30881
G1 X47.498 Y61.199 E.08044
G1 X118.952 Y132.653 E9.19505
G1 X118.068 Y132.653 E.08044
G1 X47.498 Y62.084 E9.08123
G1 X47.498 Y62.968 E.08044
G1 X117.183 Y132.653 E8.96741
G1 X116.299 Y132.654 E.08044
G1 X47.498 Y63.852 E8.85372
G1 X47.498 Y64.736 E.08044
G1 X115.415 Y132.654 E8.73996
G1 X114.531 Y132.654 E.08044
G1 X47.498 Y65.621 E8.62614
G1 X47.498 Y66.505 E.08044
G1 X113.647 Y132.654 E8.51238
G1 X112.762 Y132.654 E.08053
G1 X47.497 Y67.389 E8.39862
G1 X47.497 Y68.273 E.08044
G1 X111.878 Y132.654 E8.28486
G1 X110.994 Y132.655 E.08044
G1 X47.497 Y69.158 E8.17111
G1 X47.497 Y70.042 E.08044
G1 X110.11 Y132.655 E8.05735
G1 X109.226 Y132.655 E.08044
G1 X47.497 Y70.926 E7.94359
G1 X47.497 Y71.81 E.08044
G1 X108.342 Y132.655 E7.82983
G1 X107.457 Y132.655 E.08053
G1 X47.497 Y72.695 E7.71595
G1 X47.497 Y73.579 E.08044
G1 X106.573 Y132.655 E7.60219
G1 X105.689 Y132.656 E.08044
G1 X47.497 Y74.463 E7.4885
G1 X47.496 Y75.347 E.08044
G1 X104.805 Y132.656 E7.3748
M73 P3 R161
M73 Q3 S161
G1 X103.921 Y132.656 E.08044
G1 X47.496 Y76.232 E7.26098
G1 X47.496 Y77.116 E.08044
G1 X103.036 Y132.656 E7.14716
G1 X102.152 Y132.656 E.08044
G1 X47.496 Y78 E7.0334
G1 X47.496 Y78.884 E.08044
G1 X101.268 Y132.656 E6.91965
G1 X100.384 Y132.657 E.08044
G1 X47.496 Y79.769 E6.80589
G1 X47.496 Y80.653 E.08044
G1 X99.5 Y132.657 E6.69213
G1 X98.615 Y132.657 E.08053
G1 X47.496 Y81.537 E6.57831
G1 X47.496 Y82.421 E.08044
G1 X97.731 Y132.657 E6.46455
G1 X96.847 Y132.657 E.08044
G1 X47.496 Y83.306 E6.35073
G1 X47.495 Y84.19 E.08044
G1 X95.963 Y132.657 E6.23704
G1 X95.079 Y132.658 E.08044
G1 X47.495 Y85.074 E6.12334
G1 X47.495 Y85.958 E.08044
G1 X94.195 Y132.658 E6.00959
G1 X93.31 Y132.658 E.08053
G1 X47.495 Y86.843 E5.8957
G1 X47.495 Y87.727 E.08044
G1 X92.426 Y132.658 E5.78194
G1 X91.542 Y132.658 E.08044
G1 X47.495 Y88.611 E5.66819
G1 X47.495 Y89.495 E.08044
M73 P4 R161
M73 Q4 S161
G1 X90.658 Y132.658 E5.55443
G1 X89.774 Y132.659 E.08044
G1 X47.495 Y90.38 E5.44067
G1 X47.495 Y91.264 E.08044
G1 X88.889 Y132.659 E5.32685
G1 X88.005 Y132.659 E.08044
G1 X47.495 Y92.148 E5.21309
G1 X47.494 Y93.032 E.08044
G1 X87.121 Y132.659 E5.0994
G1 X86.237 Y132.659 E.08044
G1 X47.494 Y93.917 E4.98558
G1 X47.494 Y94.801 E.08044
G1 X85.353 Y132.659 E4.87182
G1 X84.469 Y132.66 E.08044
G1 X47.494 Y95.685 E4.75813
G1 X47.494 Y96.569 E.08044
G1 X83.584 Y132.66 E4.6443
G1 X82.7 Y132.66 E.08044
G1 X47.494 Y97.454 E4.53048
G1 X47.494 Y98.338 E.08044
G1 X81.816 Y132.66 E4.41672
G1 X80.932 Y132.66 E.08044
G1 X47.494 Y99.222 E4.30297
G1 X47.494 Y100.106 E.08044
M73 P4 R160
M73 Q4 S160
G1 X80.048 Y132.66 E4.18921
G1 X79.163 Y132.661 E.08053
G1 X47.494 Y100.991 E4.07539
G1 X47.493 Y101.875 E.08044
G1 X78.279 Y132.661 E3.96169
G1 X77.395 Y132.661 E.08044
G1 X47.493 Y102.759 E3.84794
G1 X47.493 Y103.643 E.08044
G1 X76.511 Y132.661 E3.73418
G1 X75.627 Y132.661 E.08044
G1 X47.493 Y104.528 E3.62036
G1 X47.493 Y105.412 E.08044
G1 X74.742 Y132.661 E3.50654
G1 X73.858 Y132.662 E.08044
G1 X47.493 Y106.296 E3.39284
G1 X47.493 Y107.18 E.08044
G1 X72.974 Y132.662 E3.27909
G1 X72.09 Y132.662 E.08044
G1 X47.493 Y108.065 E3.16526
G1 X47.493 Y108.949 E.08044
G1 X71.206 Y132.662 E3.05151
G1 X70.322 Y132.662 E.08044
G1 X47.493 Y109.833 E2.93775
G1 X47.492 Y110.717 E.08044
G1 X69.437 Y132.662 E2.82399
G1 X68.553 Y132.663 E.08044
G1 X47.492 Y111.602 E2.71023
G1 X47.492 Y112.486 E.08044
G1 X67.669 Y132.663 E2.59648
G1 X66.785 Y132.663 E.08044
G1 X47.492 Y113.37 E2.48272
G1 X47.492 Y114.254 E.08044
G1 X65.901 Y132.663 E2.36896
G1 X65.016 Y132.663 E.08053
G1 X47.492 Y115.139 E2.25507
G1 X47.492 Y116.023 E.08044
G1 X64.132 Y132.663 E2.14132
G1 X63.248 Y132.664 E.08044
G1 X47.492 Y116.907 E2.02762
G1 X47.492 Y117.791 E.08044
G1 X62.364 Y132.664 E1.91387
G1 X61.48 Y132.664 E.08044
G1 X47.492 Y118.676 E1.80004
G1 X47.491 Y119.56 E.08044
G1 X60.595 Y132.664 E1.68629
G1 X59.711 Y132.664 E.08044
G1 X47.491 Y120.444 E1.57253
G1 X47.491 Y121.328 E.08044
G1 X58.827 Y132.664 E1.45877
G1 X57.943 Y132.665 E.08044
G1 X47.491 Y122.213 E1.34501
G1 X47.491 Y123.097 E.08044
G1 X57.059 Y132.665 E1.23126
G1 X56.175 Y132.665 E.08044
G1 X47.491 Y123.981 E1.1175
G1 X47.491 Y124.865 E.08044
G1 X55.29 Y132.665 E1.00368
G1 X54.406 Y132.665 E.08044
G1 X47.491 Y125.75 E.88986
G1 X47.491 Y126.634 E.08044
G1 X53.522 Y132.665 E.7761
G1 X52.638 Y132.666 E.08044
G1 X47.49 Y127.518 E.66247
G1 X47.49 Y128.402 E.08044
G1 X52.035 Y132.947 E.58487
M106 S84.15
;LAYER_CHANGE
;Z:0.65
;HEIGHT:0.3
;BEFORE_LAYER_CHANGE
G92 E0.0
;0.65


G1 E-2.24 F4200
;WIPE_START
G1 F6240
G1 X50.973 Y131.885 E-.96
;WIPE_END
G1 Z.65 F7800
;AFTER_LAYER_CHANGE
;0.65
M104 S210 ; set temperature
G1 Z.85
G1 X95.626 Y133.73
G1 Z.65
G1 E3.2 F2400
;TYPE:Perimeter
;WIDTH:0.45
G1 F3600
G1 X50.255 Y133.738 E2.18219
G1 X50.186 Y133.464 E.01359
G1 X49.785 Y132.492 E.05057
G1 X49.659 Y132.273 E.01215
G1 X49.016 Y131.434 E.05084
G1 X48.837 Y131.256 E.01214
G1 X48.002 Y130.616 E.0506
G1 X47.786 Y130.491 E.012
G1 X46.814 Y130.088 E.05061
G1 X46.418 Y130.002 E.01949
G1 X46.429 Y35.565 E4.54209
G1 X63.535 Y36.45 E.82384
G1 X88.296 Y44.48 E1.25198
G1 X110.14 Y58.646 E1.25221
G1 X127.57 Y77.983 E1.2521
G1 X139.4 Y101.171 E1.25202
G1 X144.829 Y126.633 E1.25216
G1 X144.784 Y127.496 E.04156
G1 X144.462 Y133.72 E.29975
G1 X95.686 Y133.73 E2.34596
G1 X95.686 Y133.73 F7800
G1 X95.626 Y134.115
G1 F3600
G1 X49.917 Y134.124 E2.19844
G1 X49.83 Y133.611 E.02503
G1 X49.429 Y132.639 E.05057
G1 X49.353 Y132.508 E.00728
G1 X48.71 Y131.669 E.05084
G1 X48.603 Y131.562 E.00728
G1 X47.768 Y130.923 E.05057
G1 X47.638 Y130.848 E.00722
G1 X46.666 Y130.444 E.05063
G1 X46.032 Y130.34 E.0309
G1 X46.043 Y35.159 E4.57788
G1 X63.605 Y36.067 E.8458
G1 X88.463 Y44.129 E1.25689
G1 X110.393 Y58.35 E1.25712
G1 X127.891 Y77.762 E1.25697
G1 X139.767 Y101.04 E1.25688
G1 X145.216 Y126.602 E1.25707
G1 X145.169 Y127.516 E.04402
G1 X144.828 Y134.106 E.31738
G1 X95.686 Y134.115 E2.36356
G1 X95.686 Y134.115 F7800
G1 X95.626 Y134.501
;TYPE:External perimeter
G1 F1800
G1 X49.579 Y134.51 E2.2147
G1 X49.473 Y133.758 E.03653
G1 X49.072 Y132.786 E.05057
G1 X48.368 Y131.868 E.05564
G1 X47.49 Y131.204 E.05295
G1 X46.518 Y130.8 E.05063
G1 X45.647 Y130.677 E.04231
G1 X45.658 Y34.753 E4.61361
G1 X63.676 Y35.685 E.86776
G1 X88.631 Y43.778 E1.26179
G1 X110.645 Y58.054 E1.26195
G1 X128.211 Y77.542 E1.26188
G1 X140.133 Y100.91 E1.26174
G1 X145.604 Y126.571 E1.26194
G1 X145.554 Y127.536 E.04648
G1 X145.194 Y134.492 E.33501
G1 X95.686 Y134.501 E2.38116
G1 E-2.24 F4200
;WIPE_START
G1 F6240
G1 X95.626 Y134.501 E-.03837
G1 X94.185 Y134.501 E-.92163
;WIPE_END
G1 Z.85 F7800
G1 X46.818 Y35.899
G1 Z.65
G1 E3.2 F2400
;TYPE:Solid infill
;WIDTH:0.536241
G1 F1200
G1 X46.776 Y35.858 E.00345
G1 X46.719 Y35.873 E.00347
G1 X46.704 Y35.93 E.00347
G1 X46.746 Y35.972 E.0035
G1 X46.803 Y35.956 E.00348
;WIDTH:0.45
G1 X47.379 Y35.904 E.02782
G1 X46.718 Y36.564 E.04493
G1 X46.718 Y37.11 E.02626
G1 X47.897 Y35.93 E.08023
G1 X48.416 Y35.957 E.025
G1 X46.718 Y37.655 E.1155
G1 X46.718 Y38.201 E.02626
G1 X48.934 Y35.984 E.15076
G1 X49.453 Y36.011 E.025
G1 X46.718 Y38.746 E.18603
G1 X46.718 Y39.291 E.02621
G1 X49.971 Y36.038 E.22127
G1 X50.49 Y36.065 E.025
