; generated by PrusaSlicer 2.9.0 on 2025-02-07 at 00:05:12 UTC


;
;

;
;

;
;

;
;
; 

; external perimeters extrusion width = 0.45mm
; perimeters extrusion width = 0.45mm
; infill extrusion width = 0.45mm
; solid infill extrusion width = 0.45mm
; top infill extrusion width = 0.40mm
; support material extrusion width = 0.40mm
; first layer extrusion width = 0.70mm

M73 P0 R677
M73 Q0 S677
M201 X2500 Y2500 Z400 E5000 ; sets maximum accelerations, mm/sec^2
M203 X180 Y180 Z12 E80 ; sets maximum feedrates, mm / sec
M204 P2000 R1250 T2500 ; sets acceleration (P, T) and retract acceleration (R), mm/sec^2
M205 X8.00 Y8.00 Z2.00 E10.00 ; sets the jerk limits, mm/sec
M205 S0 T0 ; sets the minimum extruding and travel feed rate, mm/sec
;TYPE:Custom
M862.3 P "MINI" ; printer model check
G90 ; use absolute coordinates
M83 ; extruder relative mode
M104 S170 ; set extruder temp for bed leveling
M140 S60 ; set bed temp
M109 R170 ; wait for bed leveling temp
M190 S60 ; wait for bed temp
M204 T1250 ; set travel acceleration
G28 ; home all without mesh bed level
G29 ; mesh bed leveling 
M204 T2500 ; restore travel acceleration
M104 S215 ; set extruder temp
G92 E0
G1 Y-2 X179 F2400
G1 Z3 F720
M109 S215 ; wait for extruder temp

; intro line
G1 X170 F1000
G1 Z0.2 F720
G1 X110 E8 F900
G1 X40 E10 F700
G92 E0

M221 S95 ; set flow
G21 ; set units to millimeters
G90 ; use absolute coordinates
M83 ; use relative distances for extrusion

M900 K0.2 ; Filament gcode LA 1.5
; ; Filament gcode LA 1.0




M107
;LAYER_CHANGE
;Z:0.35
;HEIGHT:0.35
G1 E-3.2 F4200
G1 Z.55 F7800
G1 X69.033 Y69.055
G1 Z.35
G1 E3.2 F2400
;TYPE:Skirt/Brim
;WIDTH:0.7
G1 F1800
G1 X124.032 Y14.074 E7.07138
G1 X125.87 Y12.797 E.20351
G1 X128.494 Y12.226 E.24418
G1 X164.135 Y12.226 E3.24082
G1 X166.338 Y12.623 E.20354
G1 X168.264 Y13.763 E.20351
G1 X169.671 Y15.504 E.20354
G1 X170.381 Y17.627 E.20355
G1 X170.394 Y19.361 E.15768
G1 X165.292 Y58.162 E3.55853
G1 X164.866 Y59.753 E.14977
G1 X149.881 Y95.931 E3.56068
G1 X149.057 Y97.358 E.14984
G1 X125.219 Y128.424 E3.56062
G1 X124.054 Y129.589 E.14981
G1 X92.988 Y153.427 E3.56062
G1 X91.561 Y154.251 E.14984
G1 X55.384 Y169.236 E3.56059
G1 X53.792 Y169.662 E.14985
G1 X14.969 Y174.774 E3.56063
G1 X12.733 Y174.668 E.20355
G1 X10.675 Y173.788 E.20352
G1 X9.053 Y172.246 E.2035
G1 X8.071 Y170.234 E.20358
G1 X7.833 Y168.518 E.15753
G1 X7.819 Y132.868 E3.24164
G1 X8.215 Y130.665 E.20353
G1 X9.668 Y128.401 E.24461
G1 X68.991 Y69.097 E7.62735
G1 E-2.24 F4200
;WIPE_START
G1 F6240
G1 X69.033 Y69.055 E-.03798
G1 X70.053 Y68.036 E-.92202
;WIPE_END
G1 Z.55 F7800
G1 X15.731 Y166.281
G1 Z.35
G1 E3.2 F2400
;TYPE:Perimeter
;WIDTH:0.7
G1 F1800
G1 X15.731 Y134.592 E2.88147
G1 X20.274 Y134.941 E.41431
G1 X20.681 Y134.919 E.03706
G1 X50.198 Y129.387 E2.7307
G1 X50.586 Y129.261 E.03709
G1 X77.666 Y116.278 E2.73074
G1 X78.007 Y116.056 E.037
G1 X100.804 Y96.507 E2.73071
G1 X101.076 Y96.203 E.03709
G1 X118.037 Y71.42 E2.73072
G1 X118.221 Y71.057 E.03701
G1 X128.19 Y42.728 E2.73078
G1 X128.274 Y42.329 E.03708
G1 X129.976 Y20.138 E2.02374
G1 X162.318 Y20.138 E2.94084
G1 X159.988 Y37.831 E1.62271
G1 X157.475 Y56.92 E1.75073
G1 X142.652 Y92.708 E3.52227
G1 X119.07 Y123.44 E3.52235
G1 X88.338 Y147.021 E3.5223
G1 X52.55 Y161.845 E3.52231
G1 X15.731 Y166.689 E3.37678
G1 X15.731 Y166.341 E.03164
G1 X15.731 Y166.341 F7800
G1 X15.106 Y167.156
G1 F1800
G1 X15.106 Y133.918 E3.02232
G1 X20.322 Y134.318 E.47568
G1 X20.566 Y134.304 E.02222
G1 X50.083 Y128.773 E2.73068
G1 X50.316 Y128.697 E.02229
G1 X77.395 Y115.715 E2.73062
G1 X77.6 Y115.581 E.02227
G1 X100.397 Y96.033 E2.73065
G1 X100.561 Y95.85 E.02234
G1 X117.521 Y71.067 E2.73067
G1 X117.632 Y70.849 E.02224
M73 P0 R676
M73 Q0 S676
G1 X127.6 Y42.521 E2.73067
G1 X127.651 Y42.281 E.02231
G1 X129.397 Y19.513 E2.07636
G1 X163.03 Y19.513 E3.05823
G1 X160.608 Y37.913 E1.68754
G1 X158.084 Y57.083 E1.75816
G1 X143.197 Y93.023 E3.53727
G1 X119.516 Y123.886 E3.53728
G1 X88.653 Y147.567 E3.53728
G1 X52.714 Y162.454 E3.53719
G1 X15.106 Y167.402 E3.44915
G1 X15.106 Y167.216 E.01691
G1 X15.106 Y167.216 F7800
G1 X14.481 Y168.032
;TYPE:External perimeter
G1 F1800
G1 X14.481 Y133.243 E3.16335
G1 X20.451 Y133.69 E.54437
G1 X50.045 Y128.134 E2.73798
G1 X77.194 Y115.107 E2.73813
G1 X100.045 Y95.497 E2.73805
G1 X117.043 Y70.642 E2.73803
G1 X127.011 Y42.314 E2.73067
G1 X128.819 Y18.888 E2.13645
G1 X163.743 Y18.888 E3.17562
G1 X161.228 Y37.994 E1.75229
G1 X158.693 Y57.246 E1.76569
G1 X143.743 Y93.338 E3.55223
G1 X119.962 Y124.331 E3.55219
G1 X88.969 Y148.113 E3.55225
G1 X52.877 Y163.063 E3.55223
G1 X14.481 Y168.114 E3.52141
G1 X14.481 Y168.092 E.002
G1 E-2.24 F4200
;WIPE_START
G1 F6240
G1 X14.481 Y168.032 E-.03837
G1 X14.481 Y166.591 E-.92163
;WIPE_END
G1 Z.55 F7800
G1 X160.841 Y20.326
G1 Z.35
G1 E3.2 F2400
;TYPE:Solid infill
;WIDTH:0.701798
G1 F1800
G1 X161.707 Y21.191 E.11162
G1 X161.603 Y21.974 E.07203
G1 X160.236 Y20.607 E.17629
G1 X159.35 Y20.607 E.0808
G1 X161.5 Y22.757 E.27727
G1 X161.397 Y23.54 E.07202
G1 X158.464 Y20.607 E.37825
G1 X157.578 Y20.607 E.0808
G1 X161.294 Y24.323 E.47923
G1 X161.191 Y25.106 E.07202
G1 X156.691 Y20.607 E.58027
G1 X155.805 Y20.607 E.0808
G1 X161.088 Y25.89 E.68132
G1 X160.985 Y26.673 E.07202
G1 X154.919 Y20.607 E.78229
G1 X154.033 Y20.607 E.0808
G1 X160.882 Y27.456 E.88327
G1 X160.779 Y28.239 E.07202
G1 X153.146 Y20.607 E.98432
G1 X152.26 Y20.607 E.0808
G1 X160.676 Y29.022 E1.08529
G1 X160.572 Y29.805 E.07203
G1 X151.374 Y20.607 E1.18621
G1 X150.487 Y20.607 E.08089
G1 X160.469 Y30.589 E1.28732
G1 X160.366 Y31.372 E.07202
G1 X149.601 Y20.607 E1.38829
G1 X148.715 Y20.607 E.0808
G1 X160.263 Y32.155 E1.48927
G1 X160.16 Y32.938 E.07202
G1 X147.829 Y20.607 E1.59025
G1 X146.942 Y20.607 E.08089
G1 X160.057 Y33.721 E1.6913
G1 X159.954 Y34.504 E.07202
G1 X146.056 Y20.607 E1.79227
G1 X145.17 Y20.607 E.0808
G1 X159.851 Y35.288 E1.89332
G1 X159.748 Y36.071 E.07202
G1 X144.284 Y20.607 E1.9943
G1 X143.397 Y20.607 E.08089
G1 X159.644 Y36.854 E2.09527
G1 X159.541 Y37.637 E.07202
G1 X142.511 Y20.607 E2.19625
G1 X141.625 Y20.607 E.0808
G1 X159.438 Y38.42 E2.29723
G1 X159.335 Y39.203 E.07202
G1 X140.738 Y20.607 E2.39827
G1 X139.852 Y20.607 E.0808
G1 X159.232 Y39.987 E2.49932
G1 X159.129 Y40.77 E.07202
G1 X138.966 Y20.607 E2.6003
G1 X138.08 Y20.607 E.0808
G1 X159.026 Y41.553 E2.70128
G1 X158.923 Y42.336 E.07202
G1 X137.193 Y20.607 E2.80232
G1 X136.307 Y20.607 E.0808
G1 X158.82 Y43.119 E2.9033
G1 X158.716 Y43.902 E.07203
G1 X135.421 Y20.607 E3.00421
G1 X134.535 Y20.607 E.0808
G1 X158.613 Y44.686 E3.10525
G1 X158.51 Y45.469 E.07202
G1 X133.648 Y20.607 E3.2063
G1 X132.762 Y20.607 E.0808
G1 X158.407 Y46.252 E3.30728
G1 X158.304 Y47.035 E.07202
G1 X131.876 Y20.607 E3.40825
G1 X130.989 Y20.607 E.08089
G1 X158.201 Y47.818 E3.5093
G1 X158.098 Y48.601 E.07202
G1 X130.388 Y20.892 E3.57352
G1 X130.325 Y21.715 E.07527
G1 X157.995 Y49.384 E3.56836
G1 X157.892 Y50.168 E.07211
G1 X130.262 Y22.538 E3.56327
G1 X130.199 Y23.361 E.07527
G1 X157.789 Y50.951 E3.55811
G1 X157.685 Y51.734 E.07203
G1 X130.136 Y24.184 E3.55289
G1 X130.073 Y25.008 E.07536
M73 P0 R675
M73 Q0 S675
G1 X157.582 Y52.517 E3.54766
G1 X157.479 Y53.3 E.07202
G1 X130.01 Y25.831 E3.54251
G1 X129.946 Y26.654 E.07528
G1 X157.376 Y54.083 E3.53741
G1 X157.273 Y54.867 E.07211
G1 X129.883 Y27.477 E3.53232
G1 X129.82 Y28.3 E.07527
G1 X157.17 Y55.65 E3.52716
G1 X157.067 Y56.433 E.07202
G1 X129.757 Y29.123 E3.522
G1 X129.694 Y29.946 E.07527
G1 X156.88 Y57.133 E3.50607
G1 X156.621 Y57.759 E.06178
G1 X129.631 Y30.769 E3.48073
G1 X129.568 Y31.593 E.07536
G1 X156.361 Y58.386 E3.45533
G1 X156.101 Y59.013 E.0619
G1 X129.504 Y32.416 E3.43005
G1 X129.441 Y33.239 E.07527
G1 X155.842 Y59.639 E3.40471
G1 X155.582 Y60.266 E.0619
G1 X129.378 Y34.062 E3.37937
G1 X129.315 Y34.885 E.07527
G1 X155.323 Y60.893 E3.35409
G1 X155.063 Y61.519 E.06181
G1 X129.252 Y35.708 E3.32868
G1 X129.189 Y36.531 E.07527
G1 X154.803 Y62.146 E3.30334
G1 X154.544 Y62.773 E.06186
G1 X129.126 Y37.354 E3.27807
G1 X129.062 Y38.178 E.07537
G1 X154.284 Y63.399 E3.25266
G1 X154.025 Y64.026 E.06186
G1 X128.999 Y39.001 E3.22738
G1 X128.936 Y39.824 E.07527
G1 X153.765 Y64.653 E3.20204
G1 X153.506 Y65.279 E.06178
G1 X128.873 Y40.647 E3.1767
G1 X128.81 Y41.47 E.07527
G1 X153.246 Y65.906 E3.15136
G1 X152.986 Y66.533 E.0619
G1 X128.747 Y42.293 E3.12602
G1 X128.704 Y42.629 E.03089
G1 X128.585 Y43.018 E.0371
G1 X152.727 Y67.16 E3.11344
G1 X152.467 Y67.786 E.06181
G1 X128.354 Y43.673 E3.1097
G1 X128.123 Y44.329 E.06342
G1 X152.208 Y68.413 E3.10603
G1 X151.948 Y69.04 E.0619
G1 X127.893 Y44.984 E3.10229
G1 X127.662 Y45.64 E.06342
G1 X151.688 Y69.666 E3.09848
G1 X151.429 Y70.293 E.06186
G1 X127.431 Y46.295 E3.09487
G1 X127.201 Y46.951 E.06339
G1 X151.169 Y70.92 E3.09107
G1 X150.91 Y71.546 E.06178
G1 X126.97 Y47.607 E3.08733
G1 X126.739 Y48.262 E.06334
G1 X150.65 Y72.173 E3.08365
G1 X150.391 Y72.8 E.06186
G1 X126.508 Y48.918 E3.07998
G1 X126.278 Y49.573 E.06331
G1 X150.131 Y73.426 E3.07617
G1 X149.871 Y74.053 E.0619
G1 X126.047 Y50.229 E3.07243
G1 X125.816 Y50.884 E.06334
G1 X149.612 Y74.68 E3.06882
G1 X149.352 Y75.306 E.06181
G1 X125.586 Y51.54 E3.06495
G1 X125.355 Y52.195 E.06334
G1 X149.093 Y75.933 E3.06134
G1 X148.833 Y76.56 E.0619
G1 X125.124 Y52.851 E3.0576
G1 X124.893 Y53.506 E.06334
G1 X148.574 Y77.187 E3.05399
G1 X148.314 Y77.813 E.06181
G1 X124.663 Y54.162 E3.05012
G1 X124.432 Y54.817 E.06334
G1 X148.054 Y78.44 E3.04645
G1 X147.795 Y79.067 E.06186
G1 X124.201 Y55.473 E3.04277
G1 X123.97 Y56.129 E.06342
G1 X147.535 Y79.693 E3.03897
G1 X147.276 Y80.32 E.06186
G1 X123.74 Y56.784 E3.03529
G1 X123.509 Y57.44 E.06342
G1 X147.016 Y80.947 E3.03155
G1 X146.756 Y81.573 E.06181
G1 X123.278 Y58.095 E3.02781
G1 X123.048 Y58.751 E.06339
G1 X146.497 Y82.2 E3.02407
G1 X146.237 Y82.827 E.0619
G1 X122.817 Y59.406 E3.0204
G1 X122.586 Y60.062 E.06342
G1 X145.978 Y83.453 E3.01666
G1 X145.718 Y84.08 E.0619
M73 P0 R674
M73 Q0 S674
G1 X122.355 Y60.717 E3.01298
G1 X122.125 Y61.373 E.06339
G1 X145.459 Y84.707 E3.00924
G1 X145.199 Y85.333 E.06181
G1 X121.894 Y62.028 E3.0055
G1 X121.663 Y62.684 E.06342
G1 X144.939 Y85.96 E3.00176
G1 X144.68 Y86.587 E.06186
G1 X121.432 Y63.34 E2.99809
G1 X121.202 Y63.995 E.06331
G1 X144.42 Y87.214 E2.99435
G1 X144.161 Y87.84 E.06178
G1 X120.971 Y64.651 E2.99061
G1 X120.74 Y65.306 E.06334
G1 X143.901 Y88.467 E2.98693
G1 X143.641 Y89.094 E.0619
G1 X120.51 Y65.962 E2.98313
G1 X120.279 Y66.617 E.06334
G1 X143.382 Y89.72 E2.97945
G1 X143.122 Y90.347 E.0619
G1 X120.048 Y67.273 E2.97571
G1 X119.817 Y67.928 E.06334
G1 X142.863 Y90.974 E2.9721
G1 X142.603 Y91.6 E.06181
G1 X119.587 Y68.584 E2.96823
G1 X119.356 Y69.239 E.06334
G1 X142.344 Y92.227 E2.96462
G1 X142.242 Y92.472 E.0242
G1 X142.008 Y92.777 E.03506
G1 X119.125 Y69.895 E2.95101
G1 X118.895 Y70.551 E.06339
G1 X141.623 Y93.279 E2.93109
G1 X141.238 Y93.78 E.05762
G1 X118.664 Y71.206 E2.91123
G1 X118.631 Y71.3 E.00908
G1 X118.356 Y71.784 E.05076
G1 X140.853 Y94.282 E2.90136
G1 X140.468 Y94.783 E.05762
G1 X117.996 Y72.311 E2.89807
G1 X117.636 Y72.837 E.05813
G1 X140.084 Y95.285 E2.89498
G1 X139.699 Y95.786 E.05762
G1 X117.276 Y73.363 E2.89175
G1 X116.915 Y73.889 E.05818
G1 X139.314 Y96.288 E2.88866
G1 X138.929 Y96.789 E.05762
G1 X116.555 Y74.415 E2.88544
G1 X116.195 Y74.941 E.05813
G1 X138.545 Y97.291 E2.88234
G1 X138.16 Y97.792 E.05762
G1 X115.835 Y75.468 E2.87905
G1 X115.475 Y75.994 E.05813
G1 X137.775 Y98.294 E2.87589
G1 X137.39 Y98.795 E.05762
G1 X115.115 Y76.52 E2.87267
G1 X114.755 Y77.046 E.05813
G1 X137.005 Y99.297 E2.86951
G1 X136.621 Y99.798 E.05756
G1 X114.395 Y77.572 E2.86635
G1 X114.035 Y78.098 E.05813
G1 X136.236 Y100.3 E2.86319
G1 X135.851 Y100.801 E.05762
G1 X113.675 Y78.625 E2.8599
G1 X113.314 Y79.151 E.05818
G1 X135.466 Y101.303 E2.85681
G1 X135.081 Y101.804 E.05762
G1 X112.954 Y79.677 E2.85358
G1 X112.594 Y80.203 E.05813
G1 X134.697 Y102.305 E2.85042
G1 X134.312 Y102.807 E.05769
G1 X112.234 Y80.729 E2.84726
G1 X111.874 Y81.256 E.0582
G1 X133.927 Y103.308 E2.84397
G1 X133.542 Y103.81 E.05769
G1 X111.514 Y81.782 E2.84081
G1 X111.154 Y82.308 E.05813
G1 X133.157 Y104.311 E2.83759
G1 X132.773 Y104.813 E.05764
G1 X110.794 Y82.834 E2.83449
G1 X110.434 Y83.36 E.05813
G1 X132.388 Y105.314 E2.83127
G1 X132.003 Y105.816 E.05769
G1 X110.074 Y83.886 E2.82811
G1 X109.714 Y84.413 E.0582
G1 X131.618 Y106.317 E2.82482
G1 X131.233 Y106.819 E.05769
G1 X109.353 Y84.939 E2.82173
G1 X108.993 Y85.465 E.05813
G1 X130.849 Y107.32 E2.81857
G1 X130.464 Y107.822 E.05769
G1 X108.633 Y85.991 E2.81541
G1 X108.273 Y86.517 E.05813
G1 X130.079 Y108.323 E2.81218
G1 X129.694 Y108.825 E.05769
G1 X107.913 Y87.043 E2.80902
G1 X107.553 Y87.57 E.0582
G1 X129.309 Y109.326 E2.80574
G1 X128.925 Y109.828 E.05764
G1 X107.193 Y88.096 E2.80264
G1 X106.833 Y88.622 E.05813
G1 X128.54 Y110.329 E2.79942
G1 X128.155 Y110.831 E.05769
G1 X106.473 Y89.148 E2.79626
G1 X106.113 Y89.674 E.05813
G1 X127.77 Y111.332 E2.79303
G1 X127.385 Y111.833 E.05762
G1 X105.752 Y90.2 E2.78987
G1 X105.392 Y90.727 E.0582
G1 X127.001 Y112.335 E2.78671
G1 X126.616 Y112.836 E.05762
G1 X105.032 Y91.253 E2.78349
G1 X104.672 Y91.779 E.05813
G1 X126.231 Y113.338 E2.78033
G1 X125.846 Y113.839 E.05762
M73 P0 R673
M73 Q0 S673
G1 X104.312 Y92.305 E2.77711
G1 X103.952 Y92.831 E.05813
G1 X125.461 Y114.341 E2.77395
G1 X125.077 Y114.842 E.05756
G1 X103.592 Y93.358 E2.77072
G1 X103.232 Y93.884 E.05813
G1 X124.692 Y115.344 E2.76756
G1 X124.307 Y115.845 E.05762
G1 X102.872 Y94.41 E2.76434
G1 X102.512 Y94.936 E.05813
G1 X123.922 Y116.347 E2.76118
G1 X123.538 Y116.848 E.05756
G1 X102.152 Y95.462 E2.75802
G1 X101.791 Y95.988 E.05818
G1 X123.153 Y117.35 E2.75492
G1 X122.768 Y117.851 E.05762
G1 X101.427 Y96.511 E2.75215
G1 X101.165 Y96.813 E.03646
G1 X100.992 Y96.962 E.02082
G1 X122.383 Y118.353 E2.75866
G1 X121.998 Y118.854 E.05762
G1 X100.515 Y97.371 E2.77053
G1 X100.038 Y97.78 E.0573
G1 X121.614 Y119.356 E2.78252
G1 X121.229 Y119.857 E.05762
G1 X99.561 Y98.189 E2.79439
G1 X99.084 Y98.598 E.0573
G1 X120.844 Y120.359 E2.80632
G1 X120.459 Y120.86 E.05762
G1 X98.607 Y99.007 E2.81818
G1 X98.129 Y99.417 E.05743
G1 X120.074 Y121.361 E2.83005
G1 X119.69 Y121.863 E.05764
G1 X97.652 Y99.826 E2.84204
G1 X97.175 Y100.235 E.0573
G1 X119.305 Y122.364 E2.8539
G1 X118.92 Y122.866 E.05769
G1 X96.698 Y100.644 E2.86583
G1 X96.221 Y101.053 E.0573
G1 X118.474 Y123.307 E2.8699
G1 X117.973 Y123.691 E.05756
G1 X95.744 Y101.462 E2.86674
G1 X95.267 Y101.872 E.05736
G1 X117.471 Y124.076 E2.86351
G1 X116.97 Y124.461 E.05762
G1 X94.79 Y102.281 E2.86042
G1 X94.313 Y102.69 E.0573
G1 X116.468 Y124.846 E2.85726
G1 X115.967 Y125.231 E.05762
G1 X93.835 Y103.099 E2.85423
G1 X93.358 Y103.508 E.0573
G1 X115.465 Y125.615 E2.851
G1 X114.964 Y126 E.05762
G1 X92.881 Y103.917 E2.84791
G1 X92.404 Y104.326 E.0573
G1 X114.463 Y126.385 E2.84481
G1 X113.961 Y126.77 E.05769
G1 X91.927 Y104.736 E2.84159
G1 X91.45 Y105.145 E.0573
G1 X113.46 Y127.154 E2.83843
G1 X112.958 Y127.539 E.05769
G1 X90.973 Y105.554 E2.83527
G1 X90.496 Y105.963 E.0573
G1 X112.457 Y127.924 E2.83217
G1 X111.955 Y128.309 E.05769
G1 X90.019 Y106.372 E2.82901
G1 X89.541 Y106.781 E.05737
G1 X111.454 Y128.694 E2.82598
G1 X110.952 Y129.078 E.05764
G1 X89.064 Y107.191 E2.82269
G1 X88.587 Y107.6 E.0573
G1 X110.451 Y129.463 E2.8196
G1 X109.949 Y129.848 E.05769
G1 X88.11 Y108.009 E2.81644
G1 X87.633 Y108.418 E.0573
G1 X109.448 Y130.233 E2.81334
G1 X108.946 Y130.618 E.05769
G1 X87.156 Y108.827 E2.81018
G1 X86.679 Y109.236 E.0573
G1 X108.445 Y131.002 E2.80703
G1 X107.943 Y131.387 E.05769
G1 X86.202 Y109.646 E2.8038
G1 X85.725 Y110.055 E.0573
G1 X107.442 Y131.772 E2.80071
G1 X106.94 Y132.157 E.05769
G1 X85.247 Y110.464 E2.79761
G1 X84.77 Y110.873 E.0573
G1 X106.439 Y132.542 E2.79452
G1 X105.937 Y132.926 E.05764
G1 X84.293 Y111.282 E2.79129
G1 X83.816 Y111.691 E.0573
G1 X105.436 Y133.311 E2.7882
G1 X104.935 Y133.696 E.05762
G1 X83.339 Y112.1 E2.7851
G1 X82.862 Y112.51 E.05736
G1 X104.433 Y134.081 E2.78188
G1 X103.932 Y134.466 E.05762
G1 X82.385 Y112.919 E2.77878
G1 X81.908 Y113.328 E.0573
G1 X103.43 Y134.85 E2.77556
