; generated by PrusaSlicer 2.9.0 on 2025-02-07 at 00:07:12 UTC


;
;

;
;

;
;

;
;
; 

; external perimeters extrusion width = 0.45mm
; perimeters extrusion width = 0.45mm
; infill extrusion width = 0.45mm
; solid infill extrusion width = 0.45mm
; top infill extrusion width = 0.40mm
; support material extrusion width = 0.40mm
; first layer extrusion width = 0.70mm

; external perimeters extrusion width = 0.45mm
; perimeters extrusion width = 0.45mm
; infill extrusion width = 0.45mm
; solid infill extrusion width = 0.45mm
; top infill extrusion width = 0.40mm
; support material extrusion width = 0.40mm
; first layer extrusion width = 0.70mm

M73 P0 R360
M73 Q0 S360
M201 X2500 Y2500 Z400 E5000 ; sets maximum accelerations, mm/sec^2
M203 X180 Y180 Z12 E80 ; sets maximum feedrates, mm / sec
M204 P2000 R1250 T2500 ; sets acceleration (P, T) and retract acceleration (R), mm/sec^2
M205 X8.00 Y8.00 Z2.00 E10.00 ; sets the jerk limits, mm/sec
M205 S0 T0 ; sets the minimum extruding and travel feed rate, mm/sec
;TYPE:Custom
M862.3 P "MINI" ; printer model check
G90 ; use absolute coordinates
M83 ; extruder relative mode
M104 S170 ; set extruder temp for bed leveling
M140 S60 ; set bed temp
M109 R170 ; wait for bed leveling temp
M190 S60 ; wait for bed temp
M204 T1250 ; set travel acceleration
G28 ; home all without mesh bed level
G29 ; mesh bed leveling 
M204 T2500 ; restore travel acceleration
M104 S215 ; set extruder temp
G92 E0
G1 Y-2 X179 F2400
G1 Z3 F720
M109 S215 ; wait for extruder temp

; intro line
G1 X170 F1000
G1 Z0.2 F720
G1 X110 E8 F900
G1 X40 E10 F700
G92 E0

M221 S95 ; set flow
G21 ; set units to millimeters
G90 ; use absolute coordinates
M83 ; use relative distances for extrusion

M900 K0.2 ; Filament gcode LA 1.5
; ; Filament gcode LA 1.0




M107
;LAYER_CHANGE
;Z:0.35
;HEIGHT:0.35
G1 E-3.2 F4200
G1 Z.55 F7800
G1 X24.092 Y23.754
G1 Z.35
G1 E3.2 F2400
;TYPE:Skirt/Brim
;WIDTH:0.7
G1 F1800
G1 X26.104 Y22.772 E.20358
G1 X27.822 Y22.534 E.15771
G1 X146.324 Y22.522 E10.77534
G1 X148.527 Y22.918 E.20353
G1 X150.794 Y24.376 E.24509
G1 X154.794 Y28.388 E.51515
G1 X156.069 Y30.228 E.20355
G1 X156.637 Y32.845 E.2435
G1 X156.637 Y151.345 E10.77516
G1 X156.24 Y153.548 E.20354
G1 X155.1 Y155.474 E.20351
G1 X153.359 Y156.881 E.20354
G1 X151.236 Y157.592 E.20358
G1 X149.505 Y157.604 E.1574
G1 X117.794 Y153.43 E2.90834
G1 X116.202 Y153.003 E.14988
G1 X86.658 Y140.766 E2.90775
G1 X85.231 Y139.942 E.14984
G1 X59.86 Y120.474 E2.90789
G1 X58.695 Y119.309 E.14981
G1 X39.227 Y93.939 E2.90781
G1 X38.403 Y92.512 E.14984
G1 X26.165 Y62.967 E2.90786
G1 X25.739 Y61.375 E.14985
G1 X21.564 Y29.67 E2.90781
G1 X21.67 Y27.434 E.20355
G1 X22.55 Y25.376 E.20352
G1 X24.051 Y23.797 E.1981
G1 E-2.24 F4200
;WIPE_START
G1 F6240
G1 X24.092 Y23.754 E-.03799
G1 X25.388 Y23.122 E-.92201
;WIPE_END
G1 Z.55 F7800
G1 X90 Y96.329
G1 Z.35
G1 E3.2 F2400
;TYPE:Perimeter
;WIDTH:0.741879
G1 F1800
G1 X89.667 Y96.329 E.03231
G1 X89.667 Y92.48 E.37344
G1 X90.333 Y92.48 E.06462
G1 X90.333 Y92.813 E.03231
G1 X90.333 Y96.329 E.34113
G1 X90.06 Y96.329 E.02649
G1 X90.06 Y96.329 F7800
G1 X90 Y96.975
;TYPE:External perimeter
;WIDTH:0.7
G1 F1800
G1 X89.021 Y96.975 E.08902
G1 X89.021 Y91.834 E.46747
G1 X90.979 Y91.834 E.17804
G1 X90.979 Y92.813 E.08902
G1 X90.979 Y96.975 E.37845
G1 X90.06 Y96.975 E.08356
G1 E-2.24 F4200
;WIPE_START
G1 F6240
G1 X90 Y96.975 E-.03837
G1 X89.021 Y96.975 E-.626
G1 X89.021 Y96.513 E-.29563
;WIPE_END
G1 Z.55 F7800
G1 X148.724 Y149.104
G1 Z.35
G1 E3.2 F2400
;TYPE:Perimeter
G1 F1800
G1 X148.724 Y149.521 E.03792
G1 X119.036 Y145.613 E2.7228
G1 X89.88 Y133.536 E2.86958
G1 X64.844 Y114.325 E2.86949
G1 X45.632 Y89.289 E2.86955
G1 X33.556 Y60.134 E2.86946
G1 X29.647 Y30.446 E2.72282
M73 P0 R359
M73 Q0 S359
G1 X144.968 Y30.445 E10.48608
G1 X145.383 Y31.462 E.09988
G1 X145.587 Y31.815 E.03707
G1 X146.228 Y32.652 E.09586
G1 X146.517 Y32.94 E.0371
G1 X147.353 Y33.582 E.09585
G1 X147.706 Y33.786 E.03707
G1 X148.725 Y34.201 E.10005
G1 X148.724 Y149.044 E10.44262
G1 X148.724 Y149.044 F7800
G1 X149.348 Y149.979
G1 F1800
G1 X149.348 Y150.234 E.02319
G1 X118.873 Y146.222 E2.79499
G1 X89.565 Y134.082 E2.88454
G1 X64.398 Y114.771 E2.88448
G1 X45.087 Y89.604 E2.88448
G1 X32.947 Y60.297 E2.88446
G1 X28.934 Y29.821 E2.79509
G1 X145.468 Y29.82 E10.59638
G1 X145.557 Y30.249 E.03984
G1 X145.96 Y31.223 E.09585
G1 X146.082 Y31.435 E.02224
G1 X146.724 Y32.271 E.09585
G1 X146.897 Y32.444 E.02225
G1 X147.733 Y33.086 E.09585
G1 X147.945 Y33.208 E.02224
G1 X148.919 Y33.612 E.09588
G1 X149.35 Y33.701 E.04002
G1 X149.35 Y33.896 E.01773
G1 X149.348 Y149.919 E10.54992
G1 X149.348 Y149.919 F7800
G1 X149.973 Y150.855
;TYPE:External perimeter
G1 F1800
G1 X149.973 Y150.946 E.00827
G1 X118.709 Y146.831 E2.86734
G1 X89.25 Y134.628 E2.89942
G1 X63.952 Y115.217 E2.89946
G1 X44.541 Y89.919 E2.89946
G1 X32.338 Y60.46 E2.89942
G1 X28.222 Y29.196 E2.86735
G1 X146.016 Y29.195 E10.71095
G1 X146.134 Y30.01 E.07488
G1 X146.537 Y30.984 E.09585
G1 X147.22 Y31.891 E.10324
G1 X148.184 Y32.631 E.1105
G1 X149.158 Y33.034 E.09585
G1 X149.975 Y33.152 E.07506
G1 X149.975 Y33.896 E.06765
G1 X149.973 Y150.795 E10.62957
G1 E-2.24 F4200
;WIPE_START
G1 F6240
G1 X149.973 Y150.855 E-.03837
G1 X149.973 Y150.946 E-.05819
G1 X148.634 Y150.77 E-.86344
;WIPE_END
G1 Z.55 F7800
G1 X148.537 Y35.607
G1 Z.35
G1 E3.2 F2400
;TYPE:Solid infill
;WIDTH:0.7001
G1 F1800
G1 X143.845 Y30.914 E.60352
G1 X142.961 Y30.914 E.08039
G1 X148.256 Y36.209 E.68101
G1 X148.256 Y37.093 E.08039
G1 X142.077 Y30.914 E.79471
G1 X141.193 Y30.914 E.08039
G1 X148.256 Y37.977 E.9084
G1 X148.256 Y38.861 E.08039
G1 X140.309 Y30.914 E1.0221
G1 X139.425 Y30.914 E.08039
G1 X148.256 Y39.745 E1.13579
G1 X148.256 Y40.629 E.08039
G1 X138.542 Y30.914 E1.24942
G1 X137.658 Y30.914 E.08039
G1 X148.256 Y41.513 E1.36312
G1 X148.256 Y42.396 E.0803
G1 X136.774 Y30.914 E1.47675
G1 X135.89 Y30.914 E.08039
G1 X148.256 Y43.28 E1.59044
G1 X148.256 Y44.164 E.08039
G1 X135.006 Y30.914 E1.70414
G1 X134.122 Y30.914 E.08039
G1 X148.256 Y45.048 E1.81784
G1 X148.256 Y45.932 E.08039
G1 X133.238 Y30.914 E1.93153
G1 X132.355 Y30.914 E.0803
G1 X148.256 Y46.816 E2.04516
G1 X148.256 Y47.7 E.08039
G1 X131.471 Y30.914 E2.15886
G1 X130.587 Y30.914 E.08039
G1 X148.256 Y48.583 E2.27249
G1 X148.256 Y49.467 E.08039
G1 X129.703 Y30.914 E2.38618
G1 X128.819 Y30.914 E.08039
G1 X148.256 Y50.351 E2.49988
G1 X148.256 Y51.235 E.08039
G1 X127.935 Y30.914 E2.61357
G1 X127.051 Y30.914 E.08039
G1 X148.256 Y52.119 E2.72727
G1 X148.256 Y53.003 E.08039
G1 X126.167 Y30.914 E2.84096
G1 X125.284 Y30.914 E.0803
G1 X148.256 Y53.887 E2.95459
G1 X148.256 Y54.77 E.0803
G1 X124.4 Y30.914 E3.06822
G1 X123.516 Y30.914 E.08039
G1 X148.256 Y55.654 E3.18192
G1 X148.256 Y56.538 E.08039
G1 X122.632 Y30.914 E3.29561
G1 X121.748 Y30.914 E.08039
G1 X148.256 Y57.422 E3.40931
G1 X148.256 Y58.306 E.08039
G1 X120.864 Y30.914 E3.523
G1 X119.98 Y30.914 E.08039
M73 P0 R358
M73 Q0 S358
G1 X148.256 Y59.19 E3.6367
G1 X148.256 Y60.074 E.08039
G1 X119.097 Y30.914 E3.75033
G1 X118.213 Y30.914 E.08039
G1 X148.256 Y60.957 E3.86396
G1 X148.256 Y61.841 E.08039
G1 X117.329 Y30.914 E3.97766
G1 X116.445 Y30.914 E.08039
G1 X148.256 Y62.725 E4.09135
G1 X148.256 Y63.609 E.08039
G1 X115.561 Y30.914 E4.20505
G1 X114.677 Y30.914 E.08039
G1 X148.256 Y64.493 E4.31874
G1 X148.256 Y65.377 E.08039
G1 X113.793 Y30.914 E4.43244
G1 X112.91 Y30.914 E.0803
G1 X148.256 Y66.261 E4.54607
G1 X148.256 Y67.144 E.0803
G1 X112.026 Y30.914 E4.6597
G1 X111.142 Y30.914 E.08039
G1 X148.256 Y68.028 E4.77339
G1 X148.256 Y68.912 E.08039
G1 X110.258 Y30.914 E4.88709
G1 X109.374 Y30.914 E.08039
G1 X148.256 Y69.796 E5.00078
G1 X148.256 Y70.68 E.08039
G1 X108.49 Y30.914 E5.11448
G1 X107.606 Y30.914 E.08039
G1 X148.256 Y71.564 E5.22817
G1 X148.256 Y72.448 E.08039
G1 X106.722 Y30.914 E5.34187
G1 X105.839 Y30.914 E.0803
G1 X148.256 Y73.331 E5.45543
G1 X148.256 Y74.215 E.08039
G1 X104.955 Y30.914 E5.56913
G1 X104.071 Y30.914 E.08039
G1 X148.256 Y75.099 E5.68282
G1 X148.256 Y75.983 E.08039
G1 X103.187 Y30.914 E5.79652
G1 X102.303 Y30.914 E.08039
G1 X148.256 Y76.867 E5.91021
G1 X148.256 Y77.751 E.08039
G1 X101.419 Y30.914 E6.02391
G1 X100.535 Y30.914 E.08039
G1 X148.256 Y78.635 E6.1376
G1 X148.256 Y79.518 E.0803
G1 X99.652 Y30.914 E6.25117
G1 X98.768 Y30.914 E.08039
G1 X148.256 Y80.402 E6.36487
G1 X148.256 Y81.286 E.08039
G1 X97.884 Y30.914 E6.47856
G1 X97 Y30.914 E.08039
G1 X148.256 Y82.17 E6.59226
G1 X148.256 Y83.054 E.08039
G1 X96.116 Y30.914 E6.70595
G1 X95.232 Y30.914 E.08039
G1 X148.256 Y83.938 E6.81965
G1 X148.256 Y84.822 E.08039
G1 X94.348 Y30.914 E6.93334
G1 X93.464 Y30.914 E.08039
G1 X148.256 Y85.705 E7.04697
G1 X148.256 Y86.589 E.08039
M73 P0 R357
M73 Q0 S357
G1 X92.581 Y30.914 E7.1606
G1 X91.697 Y30.914 E.08039
G1 X148.256 Y87.473 E7.2743
G1 X148.256 Y88.357 E.08039
G1 X90.813 Y30.914 E7.38799
G1 X89.929 Y30.914 E.08039
G1 X148.256 Y89.241 E7.50169
G1 X148.256 Y90.125 E.08039
G1 X89.045 Y30.914 E7.61538
G1 X88.161 Y30.914 E.08039
G1 X148.256 Y91.009 E7.72908
G1 X148.256 Y91.892 E.0803
G1 X87.277 Y30.914 E7.84271
G1 X86.394 Y30.914 E.0803
G1 X148.256 Y92.776 E7.95634
G1 X148.256 Y93.66 E.08039
G1 X85.51 Y30.914 E8.07004
G1 X84.626 Y30.914 E.08039
G1 X148.256 Y94.544 E8.18373
G1 X148.256 Y95.428 E.08039
G1 X83.742 Y30.914 E8.29743
G1 X82.858 Y30.914 E.08039
G1 X148.256 Y96.312 E8.41112
G1 X148.256 Y97.196 E.08039
G1 X81.974 Y30.914 E8.52482
G1 X81.09 Y30.914 E.08039
G1 X148.256 Y98.079 E8.63845
G1 X148.256 Y98.963 E.08039
G1 X80.207 Y30.914 E8.75208
G1 X79.323 Y30.914 E.08039
G1 X148.256 Y99.847 E8.86577
G1 X148.256 Y100.731 E.08039
G1 X78.439 Y30.914 E8.97947
G1 X77.555 Y30.914 E.08039
G1 X148.256 Y101.615 E9.09316
G1 X148.255 Y102.499 E.08039
M73 P1 R357
M73 Q1 S357
G1 X76.671 Y30.914 E9.20679
G1 X75.787 Y30.914 E.08039
M73 P1 R356
M73 Q1 S356
G1 X148.255 Y103.383 E9.32049
G1 X148.255 Y104.266 E.0803
G1 X74.903 Y30.914 E9.43412
G1 X74.019 Y30.914 E.08039
G1 X148.255 Y105.15 E9.54781
G1 X148.255 Y106.034 E.08039
G1 X73.136 Y30.914 E9.66144
G1 X72.252 Y30.914 E.08039
G1 X148.255 Y106.918 E9.77514
G1 X148.255 Y107.802 E.08039
G1 X71.368 Y30.914 E9.88883
G1 X70.484 Y30.914 E.08039
G1 X148.255 Y108.686 E10.00253
G1 X148.255 Y109.57 E.08039
G1 X69.6 Y30.914 E10.11623
G1 X68.716 Y30.914 E.08039
G1 X148.255 Y110.453 E10.22986
G1 X148.255 Y111.337 E.08039
G1 X67.832 Y30.914 E10.34355
G1 X66.949 Y30.914 E.0803
G1 X148.255 Y112.221 E10.45718
G1 X148.255 Y113.105 E.08039
G1 X66.065 Y30.914 E10.57088
G1 X65.181 Y30.914 E.08039
G1 X148.255 Y113.989 E10.68457
G1 X148.255 Y114.873 E.08039
G1 X64.297 Y30.914 E10.79827
G1 X63.413 Y30.914 E.08039
G1 X148.255 Y115.757 E10.91196
G1 X148.255 Y116.64 E.0803
G1 X62.529 Y30.914 E11.02559
G1 X61.645 Y30.914 E.08039
M73 P1 R355
M73 Q1 S355
G1 X148.255 Y117.524 E11.13929
G1 X148.255 Y118.408 E.08039
G1 X60.762 Y30.914 E11.25292
G1 X59.878 Y30.914 E.08039
G1 X148.255 Y119.292 E11.36661
G1 X148.255 Y120.176 E.08039
G1 X58.994 Y30.914 E11.48031
G1 X58.11 Y30.914 E.08039
G1 X148.255 Y121.06 E11.594
G1 X148.255 Y121.944 E.08039
G1 X57.226 Y30.914 E11.7077
G1 X56.342 Y30.914 E.08039
G1 X148.255 Y122.827 E11.82133
G1 X148.255 Y123.711 E.08039
G1 X55.458 Y30.914 E11.93502
G1 X54.574 Y30.914 E.08039
G1 X148.255 Y124.595 E12.04872
G1 X148.255 Y125.479 E.08039
G1 X53.691 Y30.914 E12.16235
G1 X52.807 Y30.914 E.08039
G1 X148.255 Y126.363 E12.27605
G1 X148.255 Y127.247 E.08039
G1 X51.923 Y30.914 E12.38974
G1 X51.039 Y30.914 E.08039
G1 X148.255 Y128.131 E12.50344
G1 X148.255 Y129.014 E.0803
G1 X50.155 Y30.914 E12.61707
G1 X49.271 Y30.914 E.08039
M73 P1 R354
M73 Q1 S354
G1 X148.255 Y129.898 E12.73076
G1 X148.255 Y130.782 E.08039
G1 X48.387 Y30.914 E12.84446
G1 X47.504 Y30.914 E.0803
G1 X148.255 Y131.666 E12.95809
G1 X148.255 Y132.55 E.08039
G1 X46.62 Y30.914 E13.07178
G1 X45.736 Y30.914 E.08039
G1 X148.255 Y133.434 E13.18548
G1 X148.255 Y134.318 E.08039
G1 X44.852 Y30.914 E13.29917
G1 X43.968 Y30.914 E.08039
G1 X148.255 Y135.201 E13.4128
G1 X148.255 Y136.085 E.08039
G1 X43.084 Y30.914 E13.5265
G1 X42.2 Y30.914 E.08039
G1 X148.255 Y136.969 E13.64019
G1 X148.255 Y137.853 E.08039
G1 X41.317 Y30.914 E13.75382
G1 X40.433 Y30.914 E.08039
G1 X148.255 Y138.737 E13.86752
G1 X148.255 Y139.621 E.08039
G1 X39.549 Y30.914 E13.98121
G1 X38.665 Y30.914 E.08039
M73 P1 R353
M73 Q1 S353
G1 X148.255 Y140.505 E14.09491
G1 X148.255 Y141.388 E.0803
G1 X37.781 Y30.914 E14.20854
G1 X36.897 Y30.914 E.08039
G1 X148.255 Y142.272 E14.32224
G1 X148.255 Y143.156 E.08039
G1 X36.013 Y30.914 E14.43593
G1 X35.129 Y30.914 E.08039
G1 X148.255 Y144.04 E14.54963
G1 X148.255 Y144.924 E.08039
G1 X34.246 Y30.914 E14.66326
G1 X33.362 Y30.914 E.08039
M73 P2 R353
M73 Q2 S353
G1 X148.255 Y145.808 E14.77695
G1 X148.255 Y146.692 E.08039
G1 X32.478 Y30.914 E14.89065
G1 X31.594 Y30.914 E.08039
G1 X148.255 Y147.575 E15.00428
G1 X148.255 Y148.459 E.08039
G1 X30.71 Y30.914 E15.11797
G1 X30.181 Y30.914 E.04811
G1 X30.235 Y31.323 E.03752
G1 X147.845 Y148.933 E15.12633
G1 X146.827 Y148.799 E.09338
M73 P2 R352
M73 Q2 S352
G1 X30.369 Y32.341 E14.97817
G1 X30.503 Y33.359 E.09338
G1 X145.809 Y148.665 E14.83
G1 X144.791 Y148.531 E.09338
G1 X30.637 Y34.377 E14.68184
G1 X30.771 Y35.395 E.09338
G1 X143.773 Y148.397 E14.53368
G1 X142.755 Y148.263 E.09338
G1 X30.905 Y36.413 E14.38551
G1 X31.039 Y37.431 E.09338
G1 X141.737 Y148.129 E14.23735
G1 X140.72 Y147.995 E.09329
G1 X31.173 Y38.449 E14.08925
G1 X31.307 Y39.466 E.09329
G1 X139.702 Y147.861 E13.94115
G1 X138.684 Y147.727 E.09338
G1 X31.441 Y40.484 E13.79299
G1 X31.575 Y41.502 E.09338
G1 X137.666 Y147.593 E13.64482
G1 X136.648 Y147.459 E.09338
G1 X31.709 Y42.52 E13.49666
G1 X31.843 Y43.538 E.09338
G1 X135.63 Y147.325 E13.3485
G1 X134.612 Y147.191 E.09338
M73 P2 R351
M73 Q2 S351
G1 X31.977 Y44.556 E13.20033
G1 X32.111 Y45.574 E.09338
G1 X133.595 Y147.057 E13.05223
G1 X132.577 Y146.923 E.09338
G1 X32.245 Y46.592 E12.90407
G1 X32.379 Y47.61 E.09338
G1 X131.559 Y146.789 E12.75591
G1 X130.541 Y146.655 E.09338
G1 X32.513 Y48.627 E12.60781
G1 X32.647 Y49.645 E.09338
G1 X129.523 Y146.521 E12.45964
G1 X128.505 Y146.387 E.09338
G1 X32.781 Y50.663 E12.31148
G1 X32.916 Y51.681 E.09339
G1 X127.487 Y146.253 E12.16325
G1 X126.469 Y146.119 E.09338
G1 X33.05 Y52.699 E12.01509
G1 X33.184 Y53.717 E.09338
G1 X125.452 Y145.985 E11.86699
G1 X124.434 Y145.851 E.09338
G1 X33.318 Y54.735 E11.71882
G1 X33.452 Y55.753 E.09338
G1 X123.416 Y145.717 E11.57066
G1 X122.398 Y145.583 E.09338
G1 X33.586 Y56.77 E11.42256
G1 X33.72 Y57.788 E.09338
M73 P2 R350
M73 Q2 S350
G1 X121.38 Y145.449 E11.2744
G1 X120.362 Y145.315 E.09338
G1 X33.854 Y58.806 E11.12623
G1 X33.988 Y59.824 E.09338
G1 X119.344 Y145.181 E10.97807
G1 X119.158 Y145.156 E.01707
G1 X117.925 Y144.646 E.12135
G1 X34.522 Y61.243 E10.72682
G1 X35.147 Y62.751 E.14846
G1 X116.417 Y144.021 E10.45249
G1 X114.908 Y143.396 E.14854
G1 X35.772 Y64.26 E10.17802
G1 X36.397 Y65.769 E.14854
G1 X113.399 Y142.771 E9.90356
G1 X111.89 Y142.146 E.14854
G1 X37.022 Y67.278 E9.6291
G1 X37.647 Y68.787 E.14854
G1 X110.381 Y141.521 E9.35464
G1 X108.872 Y140.896 E.14854
G1 X38.272 Y70.296 E9.08017
G1 X38.897 Y71.805 E.14854
G1 X107.364 Y140.271 E8.80577
G1 X105.855 Y139.646 E.14854
G1 X39.522 Y73.314 E8.53131
G1 X40.147 Y74.822 E.14846
G1 X104.346 Y139.021 E8.25691
G1 X102.837 Y138.396 E.14854
G1 X40.772 Y76.331 E7.98245
G1 X41.397 Y77.84 E.14854
G1 X101.328 Y137.771 E7.70799
G1 X99.819 Y137.146 E.14854
G1 X42.022 Y79.349 E7.43352
G1 X42.647 Y80.858 E.14854
G1 X98.31 Y136.521 E7.15906
G1 X96.802 Y135.896 E.14846
M73 P2 R349
M73 Q2 S349
G1 X43.272 Y82.367 E6.88466
G1 X43.897 Y83.876 E.14854
G1 X95.293 Y135.271 E6.6102
G1 X93.784 Y134.646 E.14854
G1 X44.522 Y85.385 E6.33574
G1 X45.147 Y86.893 E.14846
M73 P3 R349
M73 Q3 S349
G1 X92.275 Y134.021 E6.06134
G1 X90.766 Y133.396 E.14854
G1 X45.772 Y88.402 E5.78687
G1 X46.042 Y89.053 E.06409
G1 X47.7 Y91.214 E.24771
G1 X87.954 Y131.467 E5.17718
G1 X84.155 Y128.553 E.43543
G1 X50.615 Y95.013 E4.31372
G1 X53.53 Y98.812 E.43548
G1 X80.356 Y125.638 E3.45021
G1 X76.558 Y122.723 E.43541
G1 X56.445 Y102.61 E2.58682
