; generated by PrusaSlicer 2.9.0 on 2025-02-05 at 14:25:31 UTC


;
;

;
;

;
;

;
;
; 

; external perimeters extrusion width = 0.45mm
; perimeters extrusion width = 0.45mm
; infill extrusion width = 0.45mm
; solid infill extrusion width = 0.45mm
; top infill extrusion width = 0.40mm
; support material extrusion width = 0.40mm
; first layer extrusion width = 0.70mm

M73 P0 R484
M73 Q0 S484
M201 X2500 Y2500 Z400 E5000 ; sets maximum accelerations, mm/sec^2
M203 X180 Y180 Z12 E80 ; sets maximum feedrates, mm / sec
M204 P2000 R1250 T2500 ; sets acceleration (P, T) and retract acceleration (R), mm/sec^2
M205 X8.00 Y8.00 Z2.00 E10.00 ; sets the jerk limits, mm/sec
M205 S0 T0 ; sets the minimum extruding and travel feed rate, mm/sec
;TYPE:Custom
M862.3 P "MINI" ; printer model check
G90 ; use absolute coordinates
M83 ; extruder relative mode
M104 S170 ; set extruder temp for bed leveling
M140 S60 ; set bed temp
M109 R170 ; wait for bed leveling temp
M190 S60 ; wait for bed temp
M204 T1250 ; set travel acceleration
G28 ; home all without mesh bed level
G29 ; mesh bed leveling 
M204 T2500 ; restore travel acceleration
M104 S215 ; set extruder temp
G92 E0
G1 Y-2 X179 F2400
G1 Z3 F720
M109 S215 ; wait for extruder temp

; intro line
G1 X170 F1000
G1 Z0.2 F720
G1 X110 E8 F900
G1 X40 E10 F700
G92 E0

M221 S95 ; set flow
G21 ; set units to millimeters
G90 ; use absolute coordinates
M83 ; use relative distances for extrusion

M900 K0.2 ; Filament gcode LA 1.5
; ; Filament gcode LA 1.0




M107
;LAYER_CHANGE
;Z:0.35
;HEIGHT:0.35
G1 E-3.2 F4200
G1 Z.55 F7800
G1 X27.459 Y21.874
G1 Z.35
G1 E3.2 F2400
;TYPE:Skirt/Brim
;WIDTH:0.7
G1 F1800
G1 X29.2 Y20.467 E.20354
G1 X31.323 Y19.756 E.20358
G1 X33.099 Y19.749 E.16149
G1 X64.099 Y23.83 E2.84314
G1 X65.691 Y24.257 E.14988
G1 X94.632 Y36.245 E2.84842
G1 X96.059 Y37.069 E.14984
G1 X120.912 Y56.139 E2.84849
G1 X122.077 Y57.304 E.14981
G1 X141.148 Y82.157 E2.84854
G1 X141.972 Y83.584 E.14984
G1 X153.96 Y112.526 E2.84851
G1 X154.386 Y114.118 E.14985
G1 X158.47 Y145.134 E2.84462
G1 X158.364 Y147.37 E.20355
G1 X157.484 Y149.428 E.20352
G1 X155.942 Y151.05 E.2035
G1 X153.93 Y152.032 E.20358
G1 X152.212 Y152.271 E.15772
G1 X122.213 Y152.277 E2.7278
G1 X120.01 Y151.881 E.20353
G1 X117.749 Y150.429 E.24434
G1 X27.771 Y60.466 E11.56965
G1 X26.494 Y58.628 E.20351
G1 X25.922 Y56.002 E.24438
G1 X25.922 Y26.002 E2.72789
G1 X26.319 Y23.799 E.20354
G1 X27.429 Y21.925 E.19805
G1 E-2.24 F4200
;WIPE_START
G1 F6240
G1 X27.459 Y21.874 E-.03783
G1 X28.581 Y20.967 E-.92217
;WIPE_END
G1 Z.55 F7800
G1 X124.322 Y144.365
G1 Z.35
G1 E3.2 F2400
;TYPE:Perimeter
;WIDTH:0.7
G1 F1800
G1 X123.615 Y144.365 E.06429
G1 X120.735 Y122.493 E2.00598
G1 X120.63 Y122.099 E.03708
G1 X111.635 Y100.383 E2.13732
G1 X111.431 Y100.03 E.03707
G1 X97.122 Y81.383 E2.13725
G1 X96.834 Y81.094 E.0371
G1 X78.187 Y66.786 E2.13719
G1 X77.833 Y66.582 E.03715
G1 X56.118 Y57.587 E2.13723
G1 X55.724 Y57.481 E.0371
G1 X33.834 Y54.599 E2.00762
G1 X33.834 Y27.826 E2.43446
G1 X62.857 Y31.647 E2.66182
G1 X91.41 Y43.474 E2.81023
G1 X115.928 Y62.288 E2.81015
M73 P0 R483
M73 Q0 S483
G1 X134.742 Y86.807 E2.81022
G1 X146.569 Y115.359 E2.81014
G1 X146.798 Y117.1 E.15967
G1 X150.388 Y144.365 E2.50059
G1 X124.382 Y144.365 E2.36471
G1 X124.382 Y144.365 F7800
G1 X123.498 Y144.99
G1 F1800
G1 X123.067 Y144.99 E.03919
G1 X120.116 Y122.574 E2.05586
G1 X120.053 Y122.338 E.02221
G1 X111.058 Y100.622 E2.13732
G1 X110.935 Y100.41 E.02229
G1 X96.627 Y81.763 E2.13719
G1 X96.454 Y81.59 E.02225
G1 X77.806 Y67.281 E2.13732
G1 X77.594 Y67.159 E.02224
G1 X55.879 Y58.164 E2.13723
G1 X55.643 Y58.101 E.02221
G1 X33.209 Y55.147 E2.05752
G1 X33.209 Y27.114 E2.54903
G1 X63.02 Y31.039 E2.73409
G1 X91.725 Y42.929 E2.82519
G1 X116.374 Y61.842 E2.82508
G1 X135.288 Y86.492 E2.82521
G1 X147.178 Y115.196 E2.8251
G1 X147.418 Y117.018 E.1671
G1 X151.1 Y144.99 E2.56542
G1 X123.558 Y144.99 E2.50438
G1 X123.558 Y144.99 F7800
G1 X122.674 Y145.615
;TYPE:External perimeter
G1 F1800
G1 X122.519 Y145.615 E.01409
G1 X119.475 Y122.577 E2.11304
G1 X110.48 Y100.861 E2.13732
G1 X96.073 Y82.086 E2.1519
G1 X77.355 Y67.736 E2.14464
G1 X55.64 Y58.741 E2.13723
G1 X32.584 Y55.695 E2.11469
G1 X32.584 Y26.401 E2.66369
G1 X63.184 Y30.43 E2.80646
G1 X92.04 Y42.383 E2.84006
G1 X116.82 Y61.397 E2.84012
G1 X135.834 Y86.176 E2.84005
G1 X147.787 Y115.033 E2.84015
G1 X148.037 Y116.937 E.17462
G1 X151.813 Y145.615 E2.63018
G1 X122.734 Y145.615 E2.64414
G1 E-2.24 F4200
;WIPE_START
G1 F6240
G1 X122.674 Y145.615 E-.03837
G1 X122.519 Y145.615 E-.09911
G1 X122.351 Y144.34 E-.82252
;WIPE_END
G1 Z.55 F7800
G1 X120.052 Y67.97
G1 Z.35
G1 E3.2 F2400
;TYPE:Solid infill
;WIDTH:0.704603
G1 F1800
G1 X111.77 Y59.688 E1.07286
G1 X107.944 Y56.752 E.44176
G1 X121.464 Y70.273 E1.75146
G1 X124.4 Y74.099 E.44176
G1 X104.118 Y53.816 E2.62742
G1 X100.292 Y50.88 E.44176
G1 X127.336 Y77.925 E3.50337
G1 X130.272 Y81.751 E.44176
G1 X96.466 Y47.945 E4.37926
G1 X92.64 Y45.009 E.44176
G1 X133.208 Y85.577 E5.25522
G1 X134.333 Y87.043 E.16927
G1 X134.721 Y87.981 E.09298
G1 X90.236 Y43.495 E5.7627
G1 X88.716 Y42.866 E.15068
G1 X135.351 Y89.5 E6.04108
G1 X135.98 Y91.02 E.15068
G1 X87.197 Y42.236 E6.31946
G1 X85.677 Y41.607 E.15068
G1 X136.61 Y92.54 E6.59791
G1 X137.239 Y94.059 E.1506
G1 X84.157 Y40.977 E6.8763
G1 X82.637 Y40.348 E.15068
G1 X137.869 Y95.579 E7.15474
G1 X138.498 Y97.099 E.15068
G1 X81.118 Y39.718 E7.43313
G1 X79.598 Y39.089 E.15068
G1 X139.128 Y98.619 E7.71158
G1 X139.757 Y100.138 E.1506
G1 X78.078 Y38.459 E7.98996
G1 X76.558 Y37.83 E.15068
M73 P0 R482
M73 Q0 S482
G1 X140.387 Y101.658 E8.26841
G1 X141.016 Y103.178 E.15068
G1 X75.039 Y37.2 E8.54679
G1 X73.519 Y36.571 E.15068
G1 X141.646 Y104.698 E8.82524
G1 X142.275 Y106.217 E.1506
G1 X71.999 Y35.941 E9.10362
G1 X70.48 Y35.312 E.1506
G1 X142.905 Y107.737 E9.38201
G1 X143.534 Y109.257 E.15068
G1 X68.96 Y34.682 E9.66046
G1 X67.44 Y34.053 E.15068
G1 X144.164 Y110.776 E9.93884
G1 X144.793 Y112.296 E.15068
G1 X65.92 Y33.423 E10.21729
G1 X64.401 Y32.794 E.1506
G1 X145.423 Y113.816 E10.49567
G1 X146.052 Y115.336 E.15068
G1 X62.881 Y32.164 E10.77412
G1 X62.735 Y32.104 E.01446
G1 X61.808 Y31.982 E.08564
G1 X146.235 Y116.408 E10.93669
G1 X146.37 Y117.434 E.09479
G1 X60.783 Y31.847 E11.08703
G1 X59.758 Y31.712 E.0947
G1 X146.504 Y118.459 E11.23723
G1 X146.639 Y119.484 E.0947
G1 X58.733 Y31.577 E11.3875
G1 X57.707 Y31.442 E.09479
G1 X146.774 Y120.509 E11.53783
G1 X146.909 Y121.534 E.0947
G1 X56.682 Y31.307 E11.6881
G1 X55.657 Y31.172 E.0947
M73 P0 R481
M73 Q0 S481
G1 X147.044 Y122.56 E11.83843
G1 X147.179 Y123.585 E.0947
G1 X54.632 Y31.037 E11.9887
G1 X53.607 Y30.902 E.0947
G1 X147.314 Y124.61 E12.13896
G1 X147.449 Y125.635 E.0947
G1 X52.581 Y30.767 E12.2893
G1 X51.556 Y30.632 E.0947
G1 X147.584 Y126.66 E12.43956
G1 X147.719 Y127.686 E.09479
G1 X50.531 Y30.497 E12.5899
G1 X49.506 Y30.362 E.0947
G1 X147.854 Y128.711 E12.74016
G1 X147.989 Y129.736 E.0947
G1 X48.481 Y30.227 E12.89043
G1 X47.455 Y30.092 E.09479
G1 X148.124 Y130.761 E13.04076
G1 X148.259 Y131.786 E.0947
G1 X46.43 Y29.957 E13.19103
G1 X45.405 Y29.823 E.09469
G1 X93.618 Y78.036 E6.24556
G1 X97.123 Y80.725 E.40465
G1 X97.319 Y80.897 E.02389
G1 X97.491 Y81.093 E.02389
G1 X100.181 Y84.598 E.40471
G1 X148.394 Y132.812 E6.24562
G1 X148.529 Y133.837 E.0947
G1 X103.117 Y88.424 E5.88278
G1 X106.052 Y92.251 E.44177
G1 X148.664 Y134.862 E5.51994
G1 X148.799 Y135.887 E.0947
G1 X108.988 Y96.077 E5.15709
G1 X111.878 Y99.857 E.43585
M73 P0 R480
M73 Q0 S480
G1 X148.934 Y136.913 E4.80027
G1 X149.069 Y137.938 E.0947
G1 X112.586 Y101.455 E4.72604
G1 X113.216 Y102.975 E.15072
G1 X149.204 Y138.963 E4.66192
G1 X149.339 Y139.988 E.0947
G1 X113.845 Y104.495 E4.59786
G1 X114.475 Y106.014 E.15063
G1 X149.474 Y141.013 E4.53381
G1 X149.609 Y142.039 E.09479
G1 X115.104 Y107.534 E4.46981
G1 X115.734 Y109.054 E.15072
G1 X149.744 Y143.064 E4.40569
G1 X149.853 Y143.896 E.07686
G1 X149.686 Y143.896 E.0153
G1 X116.363 Y110.573 E4.31669
G1 X116.993 Y112.093 E.15072
G1 X148.796 Y143.896 E4.11979
G1 X147.905 Y143.896 E.08161
G1 X117.622 Y113.613 E3.92289
G1 X118.252 Y115.133 E.15072
G1 X147.015 Y143.896 E3.72599
G1 X146.125 Y143.896 E.08152
G1 X118.881 Y116.652 E3.52921
G1 X119.511 Y118.172 E.15072
G1 X145.235 Y143.896 E3.33231
G1 X144.345 Y143.896 E.08152
G1 X120.14 Y119.692 E3.13548
G1 X120.77 Y121.212 E.15072
G1 X143.454 Y143.896 E2.93851
G1 X142.564 Y143.896 E.08152
G1 X121.215 Y122.547 E2.76557
G1 X121.35 Y123.573 E.09479
G1 X141.674 Y143.896 E2.63273
G1 X140.784 Y143.896 E.08152
G1 X121.485 Y124.598 E2.49995
G1 X121.62 Y125.623 E.0947
G1 X139.893 Y143.896 E2.3671
G1 X139.003 Y143.896 E.08152
G1 X121.755 Y126.648 E2.23432
G1 X121.89 Y127.673 E.0947
G1 X138.113 Y143.896 E2.10154
G1 X137.223 Y143.896 E.08152
G1 X122.025 Y128.699 E1.9687
G1 X122.16 Y129.724 E.0947
G1 X136.332 Y143.896 E1.83585
G1 X135.442 Y143.896 E.08152
G1 X122.295 Y130.749 E1.70308
G1 X122.43 Y131.774 E.0947
G1 X134.552 Y143.896 E1.5703
G1 X133.662 Y143.896 E.08152
G1 X122.565 Y132.8 E1.43745
G1 X122.7 Y133.825 E.0947
G1 X132.771 Y143.896 E1.30461
G1 X131.881 Y143.896 E.08152
G1 X122.835 Y134.85 E1.17183
G1 X122.97 Y135.875 E.0947
G1 X130.991 Y143.896 E1.03905
G1 X130.101 Y143.896 E.08152
G1 X123.105 Y136.9 E.90627
G1 X123.24 Y137.926 E.09479
G1 X129.211 Y143.896 E.77342
G1 X128.32 Y143.896 E.08161
G1 X123.375 Y138.951 E.64058
G1 X123.51 Y139.976 E.0947
G1 X127.43 Y143.896 E.5078
G1 X126.54 Y143.896 E.08152
G1 X123.645 Y141.001 E.37502
G1 X123.78 Y142.026 E.0947
G1 X125.65 Y143.896 E.24224
G1 X124.759 Y143.896 E.08161
G1 X123.588 Y142.725 E.15169
G1 E-2.24 F4200
;WIPE_START
G1 F6240
G1 X124.65 Y143.787 E-.96
;WIPE_END
G1 Z.55 F7800
G1 X91.315 Y76.623
G1 Z.35
G1 E3.2 F2400
G1 F1800
G1 X44.38 Y29.688 E6.08001
G1 X43.354 Y29.553 E.09479
G1 X85.966 Y72.164 E5.51994
G1 X82.14 Y69.228 E.44176
G1 X42.329 Y29.418 E5.15709
G1 X41.304 Y29.283 E.0947
G1 X78.36 Y66.338 E4.80021
G1 X78.017 Y66.151 E.03578
G1 X76.762 Y65.63 E.12447
G1 X40.279 Y29.148 E4.72598
G1 X39.254 Y29.013 E.0947
G1 X75.242 Y65.001 E4.66192
G1 X73.722 Y64.371 E.15072
G1 X38.228 Y28.878 E4.59786
G1 X37.203 Y28.743 E.0947
G1 X72.202 Y63.742 E4.53381
G1 X70.683 Y63.112 E.15063
G1 X36.178 Y28.608 E4.46975
G1 X35.153 Y28.473 E.0947
G1 X69.163 Y62.483 E4.40569
G1 X67.643 Y61.853 E.15072
G1 X34.303 Y28.513 E4.3189
G1 X34.303 Y29.403 E.08152
G1 X66.123 Y61.224 E4.12206
G1 X64.604 Y60.594 E.15063
G1 X34.303 Y30.293 E3.92522
G1 X34.303 Y31.184 E.08161
G1 X63.084 Y59.965 E3.72832
G1 X61.564 Y59.335 E.15072
M73 P0 R479
M73 Q0 S479
G1 X34.303 Y32.074 E3.53142
G1 X34.303 Y32.964 E.08152
G1 X60.044 Y58.706 E3.33458
G1 X58.525 Y58.076 E.15063
G1 X34.303 Y33.854 E3.13774
G1 X34.303 Y34.744 E.08152
G1 X57.005 Y57.447 E2.9409
G1 X56.293 Y57.152 E.0706
G1 X56.046 Y57.068 E.0239
G1 X55.669 Y57.001 E.03507
G1 X34.303 Y35.635 E2.76777
G1 X34.303 Y36.525 E.08152
G1 X54.644 Y56.866 E2.63499
G1 X53.619 Y56.731 E.0947
G1 X34.303 Y37.415 E2.50221
G1 X34.303 Y38.305 E.08152
G1 X52.594 Y56.596 E2.36943
G1 X51.568 Y56.461 E.09479
G1 X34.303 Y39.196 E2.23653
G1 X34.303 Y40.086 E.08152
G1 X50.543 Y56.326 E2.10375
G1 X49.518 Y56.191 E.0947
G1 X34.303 Y40.976 E1.97097
G1 X34.303 Y41.866 E.08152
G1 X48.493 Y56.056 E1.83819
G1 X47.467 Y55.921 E.09479
M73 P1 R479
M73 Q1 S479
G1 X34.303 Y42.757 E1.70528
G1 X34.303 Y43.647 E.08152
G1 X46.442 Y55.787 E1.57256
G1 X45.417 Y55.652 E.0947
G1 X34.303 Y44.537 E1.43978
G1 X34.303 Y45.427 E.08152
G1 X44.392 Y55.517 E1.307
G1 X43.367 Y55.382 E.0947
G1 X34.303 Y46.318 E1.17416
G1 X34.303 Y47.208 E.08152
G1 X42.341 Y55.247 E1.04132
G1 X41.316 Y55.112 E.0947
G1 X34.303 Y48.098 E.90854
G1 X34.303 Y48.988 E.08152
G1 X40.291 Y54.977 E.77576
G1 X39.266 Y54.842 E.0947
G1 X34.303 Y49.878 E.64298
G1 X34.303 Y50.769 E.08161
G1 X38.241 Y54.707 E.51013
G1 X37.215 Y54.572 E.09479
G1 X34.303 Y51.659 E.37729
G1 X34.303 Y52.549 E.08152
G1 X36.19 Y54.437 E.24451
G1 X35.165 Y54.302 E.0947
G1 X34.021 Y53.158 E.14819
M106 S84.15
;LAYER_CHANGE
;Z:0.65
;HEIGHT:0.3
;BEFORE_LAYER_CHANGE
G92 E0.0
;0.65


G1 E-2.24 F4200
;WIPE_START
G1 F6240
G1 X35.083 Y54.219 E-.96
;WIPE_END
G1 Z.65 F7800
;AFTER_LAYER_CHANGE
;0.65
M104 S210 ; set temperature
G1 Z.85
G1 X123.526 Y144.969
G1 Z.65
G1 E3.2 F2400
;TYPE:Perimeter
;WIDTH:0.45
G1 F3600
G1 X123.086 Y144.969 E.02116
G1 X120.137 Y122.572 E1.08652
G1 X120.072 Y122.329 E.0121
G1 X111.078 Y100.615 E1.13041
G1 X110.952 Y100.397 E.01211
G1 X96.644 Y81.751 E1.13041
G1 X96.466 Y81.573 E.01211
G1 X77.82 Y67.265 E1.13041
G1 X77.602 Y67.139 E.01211
G1 X55.888 Y58.145 E1.13041
G1 X55.645 Y58.079 E.01211
G1 X33.23 Y55.129 E1.08738
G1 X33.23 Y27.138 E1.34627
G1 X63.015 Y31.059 E1.44491
G1 X91.714 Y42.947 E1.49406
G1 X116.359 Y61.858 E1.49409
G1 X135.269 Y86.502 E1.49403
G1 X147.157 Y115.202 E1.4941
G1 X147.397 Y117.021 E.08825
G1 X151.076 Y144.969 E1.3558
G1 X123.586 Y144.969 E1.32217
G1 X123.586 Y144.969 F7800
G1 X123.017 Y145.354
G1 F3600
G1 X122.747 Y145.354 E.01299
G1 X119.755 Y122.622 E1.10276
G1 X119.716 Y122.476 E.00727
G1 X110.721 Y100.762 E1.13043
G1 X110.646 Y100.632 E.00722
G1 X96.338 Y81.985 E1.13045
G1 X96.231 Y81.878 E.00728
G1 X77.585 Y67.571 E1.13038
G1 X77.454 Y67.495 E.00728
G1 X55.74 Y58.501 E1.13041
G1 X55.594 Y58.462 E.00727
G1 X32.845 Y55.467 E1.10359
G1 X32.845 Y26.699 E1.38364
G1 X63.116 Y30.684 E1.46849
G1 X91.909 Y42.61 E1.49894
G1 X116.634 Y61.583 E1.49896
G1 X135.606 Y86.308 E1.49893
G1 X147.533 Y115.101 E1.49895
G1 X147.779 Y116.971 E.09072
G1 X151.516 Y145.354 E1.37691
G1 X123.077 Y145.354 E1.36782
G1 X123.077 Y145.354 F7800
G1 X122.509 Y145.74
;TYPE:External perimeter
G1 F1800
G1 X122.409 Y145.74 E.00481
G1 X119.359 Y122.624 E1.12144
G1 X110.365 Y100.91 E1.13041
G1 X95.997 Y82.184 E1.13522
G1 X77.307 Y67.851 E1.13282
G1 X55.593 Y58.857 E1.13041
G1 X32.459 Y55.805 E1.12231
G1 X32.459 Y26.259 E1.42106
G1 X63.216 Y30.308 E1.49207
G1 X92.103 Y42.273 E1.50383
G1 X116.909 Y61.308 E1.50387
G1 X135.943 Y86.113 E1.5038
G1 X147.909 Y115 E1.50385
G1 X148.161 Y116.921 E.09319
G1 X151.955 Y145.74 E1.39805
G1 X122.569 Y145.74 E1.41336
G1 E-2.24 F4200
;WIPE_START
G1 F6240
G1 X122.509 Y145.74 E-.03837
G1 X122.409 Y145.74 E-.06394
G1 X122.234 Y144.41 E-.85769
;WIPE_END
G1 Z.85 F7800
G1 X33.612 Y27.496
G1 Z.65
G1 E3.2 F2400
;TYPE:Solid infill
;WIDTH:0.524649
G1 F1200
G1 X33.572 Y27.455 E.00329
G1 X33.516 Y27.47 E.00333
G1 X33.501 Y27.525 E.00327
G1 X33.542 Y27.566 E.00333
G1 X33.598 Y27.551 E.00333
;WIDTH:0.45
G1 X34.119 Y27.547 E.02506
G1 X33.52 Y28.146 E.04074
G1 X33.52 Y28.691 E.02621
G1 X34.601 Y27.61 E.07353
G1 X35.083 Y27.674 E.02339
G1 X33.52 Y29.237 E.10631
G1 X33.52 Y29.782 E.02621
G1 X35.564 Y27.737 E.13906
G1 X36.046 Y27.801 E.02339
G1 X33.52 Y30.327 E.17182
G1 X33.52 Y30.873 E.02626
G1 X36.528 Y27.864 E.20463
G1 X37.01 Y27.928 E.02339
G1 X33.52 Y31.418 E.23739
G1 X33.52 Y31.964 E.02626
G1 X37.492 Y27.991 E.2702
G1 X37.974 Y28.054 E.02338
G1 X33.52 Y32.509 E.30299
G1 X33.52 Y33.054 E.02621
G1 X38.456 Y28.118 E.33574
G1 X38.938 Y28.181 E.02338
G1 X33.52 Y33.6 E.36856
G1 X33.52 Y34.145 E.02621
G1 X39.42 Y28.245 E.40131
G1 X39.902 Y28.308 E.02338
G1 X33.52 Y34.69 E.4341
G1 X33.52 Y35.236 E.02626
G1 X40.383 Y28.372 E.46685
G1 X40.865 Y28.435 E.02338
G1 X33.52 Y35.781 E.49963
G1 X33.52 Y36.326 E.02621
G1 X41.347 Y28.499 E.53238
G1 X41.829 Y28.562 E.02338
G1 X33.52 Y36.872 E.5652
G1 X33.52 Y37.417 E.02621
G1 X42.311 Y28.625 E.59799
G1 X42.793 Y28.689 E.02339
G1 X33.52 Y37.962 E.63074
G1 X33.52 Y38.508 E.02626
G1 X43.275 Y28.752 E.66356
G1 X43.757 Y28.816 E.02339
G1 X33.52 Y39.053 E.69631
G1 X33.52 Y39.598 E.02621
G1 X44.239 Y28.879 E.72909
G1 X44.721 Y28.943 E.02339
G1 X33.52 Y40.144 E.76188
G1 X33.52 Y40.689 E.02621
G1 X45.203 Y29.006 E.79466
G1 X45.684 Y29.07 E.02334
G1 X33.52 Y41.234 E.82738
G1 X33.52 Y41.78 E.02626
G1 X46.166 Y29.133 E.8602
G1 X46.648 Y29.196 E.02338
G1 X33.52 Y42.325 E.89298
G1 X33.52 Y42.87 E.02621
M73 P1 R478
M73 Q1 S478
G1 X47.13 Y29.26 E.92574
G1 X47.612 Y29.323 E.02338
G1 X33.52 Y43.416 E.95855
G1 X33.52 Y43.961 E.02621
G1 X48.094 Y29.387 E.99131
G1 X48.576 Y29.45 E.02338
