; generated by PrusaSlicer 2.9.0 on 2025-02-05 at 14:45:54 UTC


;
;

;
;

;
;

;
;
; 

; external perimeters extrusion width = 0.45mm
; perimeters extrusion width = 0.45mm
; infill extrusion width = 0.45mm
; solid infill extrusion width = 0.45mm
; top infill extrusion width = 0.40mm
; support material extrusion width = 0.40mm
; first layer extrusion width = 0.70mm

M73 P0 R712
M73 Q0 S712
M201 X2500 Y2500 Z400 E5000 ; sets maximum accelerations, mm/sec^2
M203 X180 Y180 Z12 E80 ; sets maximum feedrates, mm / sec
M204 P2000 R1250 T2500 ; sets acceleration (P, T) and retract acceleration (R), mm/sec^2
M205 X8.00 Y8.00 Z2.00 E10.00 ; sets the jerk limits, mm/sec
M205 S0 T0 ; sets the minimum extruding and travel feed rate, mm/sec
;TYPE:Custom
M862.3 P "MINI" ; printer model check
G90 ; use absolute coordinates
M83 ; extruder relative mode
M104 S170 ; set extruder temp for bed leveling
M140 S60 ; set bed temp
M109 R170 ; wait for bed leveling temp
M190 S60 ; wait for bed temp
M204 T1250 ; set travel acceleration
G28 ; home all without mesh bed level
G29 ; mesh bed leveling 
M204 T2500 ; restore travel acceleration
M104 S215 ; set extruder temp
G92 E0
G1 Y-2 X179 F2400
G1 Z3 F720
M109 S215 ; wait for extruder temp

; intro line
G1 X170 F1000
G1 Z0.2 F720
G1 X110 E8 F900
G1 X40 E10 F700
G92 E0

M221 S95 ; set flow
G21 ; set units to millimeters
G90 ; use absolute coordinates
M83 ; use relative distances for extrusion

M900 K0.2 ; Filament gcode LA 1.5
; ; Filament gcode LA 1.0




M107
;LAYER_CHANGE
;Z:0.35
;HEIGHT:0.35
G1 E-3.2 F4200
G1 Z.55 F7800
G1 X18.451 Y10.928
G1 Z.35
G1 E3.2 F2400
;TYPE:Skirt/Brim
;WIDTH:0.7
G1 F1800
G1 X18.487 Y10.868 E.00636
G1 X20.228 Y9.461 E.20354
G1 X23.262 Y8.684 E.28478
G1 X156.723 Y8.684 E12.13555
G1 X158.926 Y9.081 E.20354
G1 X160.852 Y10.222 E.20356
G1 X162.259 Y11.963 E.20354
G1 X163.036 Y14.997 E.28478
G1 X163.036 Y164.99 E13.6388
G1 X162.639 Y167.193 E.20354
G1 X161.498 Y169.119 E.20356
G1 X159.757 Y170.525 E.20349
G1 X156.723 Y171.302 E.28478
G1 X23.262 Y171.302 E12.13555
G1 X21.059 Y170.906 E.20353
G1 X19.133 Y169.765 E.20356
G1 X17.726 Y168.024 E.20354
G1 X16.949 Y164.99 E.28478
G1 X16.949 Y14.997 E13.6388
G1 X17.346 Y12.794 E.20354
M73 P0 R711
M73 Q0 S711
G1 X18.421 Y10.979 E.19181
G1 E-2.24 F4200
;WIPE_START
G1 F6240
G1 X18.451 Y10.928 E-.03783
G1 X18.487 Y10.868 E-.04474
G1 X19.554 Y10.006 E-.87743
;WIPE_END
G1 Z.55 F7800
G1 X89.992 Y163.39
G1 Z.35
G1 E3.2 F2400
;TYPE:Perimeter
;WIDTH:0.7
G1 F1800
G1 X24.861 Y163.39 E5.92233
G1 X24.861 Y16.596 E13.34791
G1 X155.124 Y16.596 E11.84475
G1 X155.124 Y81.727 E5.92233
G1 X155.124 Y163.39 E7.42558
G1 X90.052 Y163.39 E5.91697
G1 X90.052 Y163.39 F7800
G1 X89.992 Y164.015
G1 F1800
G1 X24.236 Y164.015 E5.97916
G1 X24.236 Y15.972 E13.46148
G1 X155.748 Y15.972 E11.95832
G1 X155.748 Y81.727 E5.97907
G1 X155.748 Y164.015 E7.48241
G1 X90.052 Y164.015 E5.97371
G1 X90.052 Y164.015 F7800
G1 X89.992 Y164.64
;TYPE:External perimeter
G1 F1800
G1 X23.612 Y164.64 E6.0359
G1 X23.612 Y15.347 E13.57514
G1 X156.373 Y15.347 E12.07189
G1 X156.373 Y81.727 E6.0359
G1 X156.373 Y164.64 E7.53924
G1 X90.052 Y164.64 E6.03054
G1 E-2.24 F4200
;WIPE_START
G1 F6240
G1 X89.992 Y164.64 E-.03837
G1 X88.551 Y164.64 E-.92163
;WIPE_END
G1 Z.55 F7800
G1 X154.936 Y18.05
G1 Z.35
M73 P0 R710
M73 Q0 S710
G1 E3.2 F2400
;TYPE:Solid infill
;WIDTH:0.701605
G1 F1800
G1 X153.951 Y17.065 E.12699
G1 X153.065 Y17.065 E.08077
G1 X154.655 Y18.655 E.20499
G1 X154.655 Y19.541 E.08077
G1 X152.179 Y17.065 E.31922
G1 X151.293 Y17.065 E.08077
G1 X154.655 Y20.427 E.43344
G1 X154.655 Y21.313 E.08077
G1 X150.407 Y17.065 E.54767
G1 X149.521 Y17.065 E.08077
G1 X154.655 Y22.199 E.6619
G1 X154.655 Y23.085 E.08077
G1 X148.635 Y17.065 E.77612
G1 X147.749 Y17.065 E.08077
G1 X154.655 Y23.971 E.89035
G1 X154.655 Y24.857 E.08077
G1 X146.863 Y17.065 E1.00458
G1 X145.977 Y17.065 E.08077
G1 X154.655 Y25.743 E1.1188
G1 X154.655 Y26.629 E.08077
G1 X145.091 Y17.065 E1.23303
G1 X144.205 Y17.065 E.08077
G1 X154.655 Y27.515 E1.34726
G1 X154.655 Y28.401 E.08077
G1 X143.319 Y17.065 E1.46148
G1 X142.433 Y17.065 E.08077
G1 X154.655 Y29.287 E1.57571
G1 X154.655 Y30.173 E.08077
G1 X141.547 Y17.065 E1.68994
G1 X140.661 Y17.065 E.08077
G1 X154.655 Y31.059 E1.80416
G1 X154.655 Y31.945 E.08077
G1 X139.775 Y17.065 E1.91839
G1 X138.889 Y17.065 E.08077
G1 X154.655 Y32.831 E2.03262
G1 X154.655 Y33.717 E.08077
G1 X138.003 Y17.065 E2.14684
G1 X137.117 Y17.065 E.08077
G1 X154.655 Y34.603 E2.26107
G1 X154.655 Y35.489 E.08077
G1 X136.231 Y17.065 E2.3753
G1 X135.345 Y17.065 E.08077
G1 X154.655 Y36.375 E2.48952
G1 X154.655 Y37.261 E.08077
G1 X134.459 Y17.065 E2.60375
G1 X133.573 Y17.065 E.08077
G1 X154.655 Y38.147 E2.71798
G1 X154.655 Y39.033 E.08077
G1 X132.687 Y17.065 E2.8322
G1 X131.801 Y17.065 E.08077
G1 X154.655 Y39.919 E2.94643
G1 X154.655 Y40.805 E.08077
G1 X130.915 Y17.065 E3.06066
G1 X130.029 Y17.065 E.08077
G1 X154.655 Y41.691 E3.17488
G1 X154.655 Y42.577 E.08077
G1 X129.143 Y17.065 E3.28911
G1 X128.257 Y17.065 E.08077
G1 X154.655 Y43.463 E3.40334
G1 X154.655 Y44.349 E.08077
G1 X127.371 Y17.065 E3.51756
G1 X126.485 Y17.065 E.08077
G1 X154.655 Y45.235 E3.63179
G1 X154.655 Y46.121 E.08077
G1 X125.599 Y17.065 E3.74602
G1 X124.713 Y17.065 E.08077
G1 X154.655 Y47.007 E3.86024
G1 X154.655 Y47.893 E.08077
G1 X123.827 Y17.065 E3.97447
G1 X122.941 Y17.065 E.08077
G1 X154.655 Y48.779 E4.0887
G1 X154.655 Y49.665 E.08077
G1 X122.055 Y17.065 E4.20292
G1 X121.169 Y17.065 E.08077
G1 X154.655 Y50.551 E4.31715
G1 X154.655 Y51.437 E.08077
G1 X120.283 Y17.065 E4.43138
G1 X119.397 Y17.065 E.08077
G1 X154.655 Y52.323 E4.5456
G1 X154.655 Y53.209 E.08077
G1 X118.511 Y17.065 E4.65983
G1 X117.625 Y17.065 E.08077
G1 X154.655 Y54.095 E4.77406
G1 X154.655 Y54.981 E.08077
G1 X116.739 Y17.065 E4.88828
G1 X115.853 Y17.065 E.08077
G1 X154.655 Y55.867 E5.00251
G1 X154.655 Y56.753 E.08077
G1 X114.967 Y17.065 E5.11674
G1 X114.081 Y17.065 E.08077
G1 X154.655 Y57.639 E5.23096
G1 X154.655 Y58.525 E.08077
G1 X113.195 Y17.065 E5.34519
G1 X112.309 Y17.065 E.08077
G1 X154.655 Y59.411 E5.45942
G1 X154.655 Y60.297 E.08077
G1 X111.423 Y17.065 E5.57364
G1 X110.537 Y17.065 E.08077
G1 X154.655 Y61.183 E5.68787
G1 X154.655 Y62.069 E.08077
G1 X109.651 Y17.065 E5.8021
G1 X108.765 Y17.065 E.08077
G1 X154.655 Y62.955 E5.91632
G1 X154.655 Y63.841 E.08077
G1 X107.879 Y17.065 E6.03055
G1 X106.993 Y17.065 E.08077
M73 P0 R709
M73 Q0 S709
G1 X154.655 Y64.727 E6.14478
G1 X154.655 Y65.613 E.08077
G1 X106.107 Y17.065 E6.259
G1 X105.221 Y17.065 E.08077
G1 X154.655 Y66.499 E6.37323
G1 X154.655 Y67.385 E.08077
G1 X104.335 Y17.065 E6.48746
G1 X103.449 Y17.065 E.08077
G1 X154.655 Y68.271 E6.60168
G1 X154.655 Y69.157 E.08077
G1 X102.563 Y17.065 E6.71591
G1 X101.677 Y17.065 E.08077
G1 X154.655 Y70.043 E6.83014
G1 X154.655 Y70.929 E.08077
G1 X100.791 Y17.065 E6.94437
G1 X99.905 Y17.065 E.08077
G1 X154.655 Y71.815 E7.05859
G1 X154.655 Y72.701 E.08077
G1 X99.019 Y17.065 E7.17282
G1 X98.133 Y17.065 E.08077
G1 X154.655 Y73.587 E7.28705
G1 X154.655 Y74.473 E.08077
G1 X97.247 Y17.065 E7.40127
G1 X96.361 Y17.065 E.08077
G1 X154.655 Y75.359 E7.5155
G1 X154.655 Y76.245 E.08077
G1 X95.475 Y17.065 E7.62973
G1 X94.589 Y17.065 E.08077
G1 X154.655 Y77.131 E7.74395
G1 X154.655 Y78.017 E.08077
G1 X93.703 Y17.065 E7.85818
G1 X92.817 Y17.065 E.08077
G1 X154.655 Y78.903 E7.97241
G1 X154.655 Y79.789 E.08077
G1 X91.931 Y17.065 E8.08663
G1 X91.045 Y17.065 E.08077
G1 X154.655 Y80.675 E8.20086
G1 X154.655 Y81.561 E.08077
G1 X90.159 Y17.065 E8.31509
G1 X89.273 Y17.065 E.08077
G1 X154.655 Y82.447 E8.42931
G1 X154.655 Y83.333 E.08077
G1 X88.387 Y17.065 E8.54354
G1 X87.501 Y17.065 E.08077
M73 P0 R708
M73 Q0 S708
G1 X154.655 Y84.219 E8.65777
G1 X154.655 Y85.105 E.08077
G1 X86.615 Y17.065 E8.77199
G1 X85.729 Y17.065 E.08077
G1 X154.655 Y85.991 E8.88622
G1 X154.655 Y86.877 E.08077
G1 X84.843 Y17.065 E9.00045
G1 X83.957 Y17.065 E.08077
G1 X154.655 Y87.763 E9.11467
G1 X154.655 Y88.649 E.08077
G1 X83.071 Y17.065 E9.2289
G1 X82.185 Y17.065 E.08077
G1 X154.655 Y89.535 E9.34313
G1 X154.655 Y90.421 E.08077
G1 X81.299 Y17.065 E9.45735
G1 X80.413 Y17.065 E.08077
G1 X154.655 Y91.307 E9.57158
G1 X154.655 Y92.193 E.08077
G1 X79.527 Y17.065 E9.68581
G1 X78.641 Y17.065 E.08077
G1 X154.655 Y93.079 E9.80003
G1 X154.655 Y93.965 E.08077
G1 X77.755 Y17.065 E9.91426
G1 X76.869 Y17.065 E.08077
G1 X154.655 Y94.851 E10.02849
G1 X154.655 Y95.737 E.08077
G1 X75.983 Y17.065 E10.14271
G1 X75.097 Y17.065 E.08077
G1 X154.655 Y96.623 E10.25694
G1 X154.655 Y97.509 E.08077
G1 X74.211 Y17.065 E10.37117
G1 X73.325 Y17.065 E.08077
G1 X154.655 Y98.395 E10.48539
G1 X154.655 Y99.281 E.08077
M73 P0 R707
M73 Q0 S707
G1 X72.439 Y17.065 E10.59962
G1 X71.553 Y17.065 E.08077
G1 X154.655 Y100.167 E10.71385
G1 X154.655 Y101.053 E.08077
G1 X70.667 Y17.065 E10.82807
G1 X69.781 Y17.065 E.08077
G1 X154.655 Y101.939 E10.9423
G1 X154.655 Y102.825 E.08077
G1 X68.895 Y17.065 E11.05653
G1 X68.009 Y17.065 E.08077
G1 X154.655 Y103.711 E11.17075
G1 X154.655 Y104.597 E.08077
G1 X67.123 Y17.065 E11.28498
G1 X66.237 Y17.065 E.08077
G1 X154.655 Y105.483 E11.39921
G1 X154.655 Y106.369 E.08077
G1 X65.351 Y17.065 E11.51343
G1 X64.465 Y17.065 E.08077
G1 X154.655 Y107.255 E11.62766
G1 X154.655 Y108.141 E.08077
G1 X63.579 Y17.065 E11.74189
G1 X62.693 Y17.065 E.08077
G1 X154.655 Y109.027 E11.85611
G1 X154.655 Y109.913 E.08077
G1 X61.807 Y17.065 E11.97034
G1 X60.921 Y17.065 E.08077
G1 X154.655 Y110.799 E12.08457
G1 X154.655 Y111.685 E.08077
M73 P0 R706
M73 Q0 S706
G1 X60.035 Y17.065 E12.19879
G1 X59.149 Y17.065 E.08077
G1 X154.655 Y112.571 E12.31302
G1 X154.655 Y113.457 E.08077
G1 X58.263 Y17.065 E12.42725
G1 X57.377 Y17.065 E.08077
G1 X154.655 Y114.343 E12.54147
G1 X154.655 Y115.229 E.08077
G1 X56.491 Y17.065 E12.6557
G1 X55.605 Y17.065 E.08077
G1 X154.655 Y116.115 E12.76993
G1 X154.655 Y117.001 E.08077
G1 X54.719 Y17.065 E12.88415
G1 X53.833 Y17.065 E.08077
G1 X154.655 Y117.887 E12.99838
G1 X154.655 Y118.773 E.08077
G1 X52.947 Y17.065 E13.11261
G1 X52.061 Y17.065 E.08077
G1 X154.655 Y119.659 E13.22683
G1 X154.655 Y120.545 E.08077
G1 X51.175 Y17.065 E13.34106
G1 X50.289 Y17.065 E.08077
G1 X154.655 Y121.431 E13.45529
G1 X154.655 Y122.317 E.08077
G1 X49.403 Y17.065 E13.56951
G1 X48.517 Y17.065 E.08077
M73 P0 R705
M73 Q0 S705
G1 X154.655 Y123.203 E13.68374
G1 X154.655 Y124.089 E.08077
G1 X47.631 Y17.065 E13.79797
G1 X46.745 Y17.065 E.08077
G1 X154.655 Y124.975 E13.91219
G1 X154.655 Y125.861 E.08077
G1 X45.859 Y17.065 E14.02642
G1 X44.973 Y17.065 E.08077
G1 X154.655 Y126.747 E14.14065
G1 X154.655 Y127.633 E.08077
G1 X44.087 Y17.065 E14.25487
G1 X43.201 Y17.065 E.08077
M73 P1 R705
M73 Q1 S705
G1 X154.655 Y128.519 E14.3691
G1 X154.655 Y129.405 E.08077
G1 X42.315 Y17.065 E14.48333
G1 X41.429 Y17.065 E.08077
G1 X154.655 Y130.291 E14.59755
G1 X154.655 Y131.177 E.08077
G1 X40.543 Y17.065 E14.71178
G1 X39.657 Y17.065 E.08077
G1 X154.655 Y132.063 E14.82601
G1 X154.655 Y132.949 E.08077
M73 P1 R704
M73 Q1 S704
G1 X38.771 Y17.065 E14.94023
G1 X37.885 Y17.065 E.08077
G1 X154.655 Y133.835 E15.05446
G1 X154.655 Y134.721 E.08077
G1 X36.999 Y17.065 E15.16869
G1 X36.113 Y17.065 E.08077
G1 X154.655 Y135.607 E15.28291
G1 X154.655 Y136.493 E.08077
G1 X35.227 Y17.065 E15.39714
G1 X34.341 Y17.065 E.08077
G1 X154.655 Y137.379 E15.51137
G1 X154.655 Y138.265 E.08077
G1 X33.455 Y17.065 E15.62559
G1 X32.569 Y17.065 E.08077
G1 X154.655 Y139.151 E15.73982
G1 X154.655 Y140.037 E.08077
G1 X31.683 Y17.065 E15.85405
G1 X30.797 Y17.065 E.08077
G1 X154.655 Y140.923 E15.96828
G1 X154.655 Y141.809 E.08077
G1 X29.911 Y17.065 E16.0825
G1 X29.025 Y17.065 E.08077
M73 P1 R703
M73 Q1 S703
G1 X154.655 Y142.695 E16.19673
G1 X154.655 Y143.581 E.08077
G1 X28.139 Y17.065 E16.31096
G1 X27.253 Y17.065 E.08077
G1 X154.655 Y144.467 E16.42518
G1 X154.655 Y145.353 E.08077
G1 X26.367 Y17.065 E16.53941
G1 X25.481 Y17.065 E.08077
G1 X154.655 Y146.239 E16.65364
G1 X154.655 Y147.125 E.08077
G1 X25.33 Y17.8 E16.6731
G1 X25.33 Y18.686 E.08077
G1 X154.655 Y148.011 E16.6731
G1 X154.655 Y148.897 E.08077
G1 X25.33 Y19.572 E16.6731
G1 X25.33 Y20.458 E.08077
G1 X154.655 Y149.783 E16.6731
G1 X154.655 Y150.669 E.08077
G1 X25.33 Y21.344 E16.6731
G1 X25.33 Y22.23 E.08077
M73 P1 R702
M73 Q1 S702
G1 X154.655 Y151.555 E16.6731
G1 X154.655 Y152.441 E.08077
G1 X25.33 Y23.116 E16.6731
G1 X25.33 Y24.002 E.08077
G1 X154.655 Y153.327 E16.6731
G1 X154.655 Y154.213 E.08077
G1 X25.33 Y24.888 E16.6731
G1 X25.33 Y25.774 E.08077
G1 X154.655 Y155.099 E16.6731
G1 X154.655 Y155.985 E.08077
G1 X25.33 Y26.66 E16.6731
G1 X25.33 Y27.546 E.08077
G1 X154.655 Y156.871 E16.6731
G1 X154.655 Y157.757 E.08077
G1 X25.33 Y28.432 E16.6731
G1 X25.33 Y29.318 E.08077
G1 X154.655 Y158.643 E16.6731
G1 X154.655 Y159.529 E.08077
G1 X25.33 Y30.204 E16.6731
G1 X25.33 Y31.09 E.08077
M73 P1 R701
M73 Q1 S701
G1 X154.655 Y160.415 E16.6731
G1 X154.655 Y161.301 E.08077
G1 X25.33 Y31.976 E16.6731
G1 X25.33 Y32.862 E.08077
G1 X154.655 Y162.187 E16.6731
G1 X154.655 Y162.922 E.067
G1 X154.504 Y162.922 E.01377
G1 X25.33 Y33.748 E16.65364
G1 X25.33 Y34.634 E.08077
G1 X153.618 Y162.922 E16.53941
G1 X152.732 Y162.922 E.08077
G1 X25.33 Y35.52 E16.42518
G1 X25.33 Y36.406 E.08077
G1 X151.846 Y162.922 E16.31096
G1 X150.96 Y162.922 E.08077
G1 X25.33 Y37.292 E16.19673
G1 X25.33 Y38.178 E.08077
G1 X150.074 Y162.922 E16.0825
G1 X149.188 Y162.922 E.08077
M73 P1 R700
M73 Q1 S700
G1 X25.33 Y39.064 E15.96828
G1 X25.33 Y39.95 E.08077
G1 X148.302 Y162.922 E15.85405
G1 X147.416 Y162.922 E.08077
G1 X25.33 Y40.836 E15.73982
G1 X25.33 Y41.722 E.08077
G1 X146.53 Y162.922 E15.62559
G1 X145.644 Y162.922 E.08077
G1 X25.33 Y42.608 E15.51137
G1 X25.33 Y43.494 E.08077
G1 X144.758 Y162.922 E15.39714
G1 X143.872 Y162.922 E.08077
G1 X25.33 Y44.38 E15.28291
G1 X25.33 Y45.266 E.08077
G1 X142.986 Y162.922 E15.16869
G1 X142.1 Y162.922 E.08077
G1 X25.33 Y46.152 E15.05446
G1 X25.33 Y47.038 E.08077
G1 X141.214 Y162.922 E14.94023
G1 X140.328 Y162.922 E.08077
G1 X25.33 Y47.924 E14.82601
G1 X25.33 Y48.81 E.08077
M73 P1 R699
M73 Q1 S699
G1 X139.442 Y162.922 E14.71178
G1 X138.556 Y162.922 E.08077
G1 X25.33 Y49.696 E14.59755
G1 X25.33 Y50.582 E.08077
G1 X137.67 Y162.922 E14.48333
G1 X136.784 Y162.922 E.08077
G1 X25.33 Y51.468 E14.3691
G1 X25.33 Y52.354 E.08077
G1 X135.898 Y162.922 E14.25487
G1 X135.012 Y162.922 E.08077
G1 X25.33 Y53.24 E14.14065
G1 X25.33 Y54.126 E.08077
G1 X134.126 Y162.922 E14.02642
G1 X133.24 Y162.922 E.08077
G1 X25.33 Y55.012 E13.91219
G1 X25.33 Y55.898 E.08077
G1 X132.354 Y162.922 E13.79797
G1 X131.468 Y162.922 E.08077
G1 X25.33 Y56.784 E13.68374
G1 X25.33 Y57.67 E.08077
G1 X130.582 Y162.922 E13.56951
G1 X129.696 Y162.922 E.08077
M73 P1 R698
M73 Q1 S698
G1 X25.33 Y58.556 E13.45529
G1 X25.33 Y59.442 E.08077
G1 X128.81 Y162.922 E13.34106
G1 X127.924 Y162.922 E.08077
G1 X25.33 Y60.328 E13.22683
G1 X25.33 Y61.214 E.08077
G1 X127.038 Y162.922 E13.11261
G1 X126.152 Y162.922 E.08077
G1 X25.33 Y62.1 E12.99838
G1 X25.33 Y62.986 E.08077
G1 X125.266 Y162.922 E12.88415
G1 X124.38 Y162.922 E.08077
G1 X25.33 Y63.872 E12.76993
G1 X25.33 Y64.758 E.08077
G1 X123.494 Y162.922 E12.6557
G1 X122.608 Y162.922 E.08077
G1 X25.33 Y65.644 E12.54147
G1 X25.33 Y66.53 E.08077
M73 P2 R698
M73 Q2 S698
G1 X121.722 Y162.922 E12.42725
G1 X120.836 Y162.922 E.08077
G1 X25.33 Y67.416 E12.31302
G1 X25.33 Y68.302 E.08077
G1 X119.95 Y162.922 E12.19879
G1 X119.064 Y162.922 E.08077
G1 X25.33 Y69.188 E12.08457
G1 X25.33 Y70.074 E.08077
M73 P2 R697
M73 Q2 S697
G1 X118.178 Y162.922 E11.97034
G1 X117.292 Y162.922 E.08077
G1 X25.33 Y70.96 E11.85611
G1 X25.33 Y71.846 E.08077
G1 X116.406 Y162.922 E11.74189
G1 X115.52 Y162.922 E.08077
G1 X25.33 Y72.732 E11.62766
G1 X25.33 Y73.618 E.08077
G1 X114.634 Y162.922 E11.51343
G1 X113.748 Y162.922 E.08077
G1 X25.33 Y74.504 E11.39921
G1 X25.33 Y75.39 E.08077
G1 X112.862 Y162.922 E11.28498
G1 X111.976 Y162.922 E.08077
G1 X25.33 Y76.276 E11.17075
G1 X25.33 Y77.162 E.08077
G1 X111.09 Y162.922 E11.05653
G1 X110.204 Y162.922 E.08077
G1 X25.33 Y78.048 E10.9423
G1 X25.33 Y78.934 E.08077
G1 X109.318 Y162.922 E10.82807
